ncols        36
nrows        318
xllcorner    4989.065488281251
yllcorner    5001.176914062500
cellsize     0.250000000000
NODATA_value -9999
-9999.0 -9999 -9999 -9999 -9999 -9999 -9999 -9999 -9999 -9999 -9999 -9999 -9999 -9999 -9999 -9999 -9999 -9999 509.08319782709435231 509.07554909574031399 509.06097192537305318 509.04904107092733057 509.03358060716954014 -9999 -9999 -9999 -9999 -9999 -9999 -9999 -9999 -9999 -9999 -9999 -9999 -9999 
-9999 -9999 -9999 -9999 -9999 -9999 -9999 509.03197809344749203 509.04693696296556027 509.05755120382468704 509.06603679685719044 509.06781167939038824 509.06327346874888917 509.06765654433456803 509.07813591727921221 509.07627471121247709 509.07272973432674235 509.06153678246732852 509.05786180619259085 509.05159268813866902 509.03955857295426313 509.02487448427245909 509.01889818617485162 -9999 -9999 -9999 -9999 -9999 -9999 -9999 -9999 -9999 -9999 -9999 -9999 -9999 
508.94930338042178164 508.96289960667058949 508.97017226659465905 508.97634953013158565 508.9725020206187196 508.97754767318809854 508.98366258944452056 508.99810332551737702 509.01354407158885351 509.0314971358099001 509.04286164628831557 509.04486864783575584 509.03787551834130909 509.04297917621494207 509.05065473844399548 509.05200168514852521 509.04890252170054055 509.03915868804597267 509.03226253704792725 509.03116652611419113 509.02006805664120748 509.00577489048174584 509.00236960741796111 508.98339979859753157 -9999 -9999 -9999 -9999 -9999 -9999 -9999 -9999 -9999 -9999 -9999 -9999 
508.91836667914407144 508.93511673442708343 508.94222102993057888 508.94875756055222382 508.94631763811975134 508.95339111761882123 508.96692115661477374 508.97569425402434717 508.99393368699753637 509.00700239193662355 509.01825211651413383 509.02253477922369029 509.01853673721143423 509.02331008091044851 509.03343713780355984 509.02356050244577546 509.02028720119136551 509.02098719949202632 509.0099996572818668 509.01494783717271275 508.99755305330631927 508.98827383731304508 508.98633632060443688 508.94863340963485143 -9999 -9999 -9999 -9999 -9999 -9999 -9999 -9999 -9999 -9999 -9999 -9999 
508.90724578731806105 508.91379540263301351 508.91298370846857324 508.92102222550539636 508.92346329878114375 508.93326193402504032 508.94955771107942155 508.95395190949614062 508.9686613312164809 508.97788011202140979 508.9943671377272949 509.00030928616956771 508.99392848132765721 509.00477711279245341 509.006654223525004 508.99955121451313289 508.99800286277775285 508.99821119112380075 508.98327773155006071 508.9787592286810991 508.97375779161717446 508.95122757069094632 508.94740950077817843 508.93137900314525268 -9999 -9999 -9999 -9999 -9999 -9999 -9999 -9999 -9999 -9999 -9999 -9999 
508.8669920434837195 508.88854536925407501 508.88838327461161271 508.89741922975167654 508.89890575469382838 508.90340655813571402 508.91484740942087228 508.93272657364576617 508.93672927411398632 508.95178013632073544 508.96828534855347925 508.97298739694963388 508.970281707703748 508.97701384005807768 508.98026777038489854 508.98314468444357317 508.97804684886011728 508.97669641170222121 508.95871128820249396 508.95353559762833129 508.9491294513501316 508.93072444622356443 508.91961713788612087 508.90994813970939958 -9999 -9999 -9999 -9999 -9999 -9999 -9999 -9999 -9999 -9999 -9999 -9999 
508.8011220597220472 508.84090013086500903 508.86164985059480159 508.87090115309723615 508.87238916897860008 508.87479028353152444 508.88862981393174323 508.89796971044182783 508.91293225820305679 508.92843767546656863 508.94364598230640695 508.94469748522300279 508.94423161322652049 508.94795231447278638 508.94893837906573708 508.95523070941777632 508.95102075453689849 508.95015376536269969 508.93495355016381154 508.92623354572208427 508.92274933774143619 508.90453328869989491 508.89199472823253245 508.87776148256955366 508.86450226290651244 -9999 -9999 -9999 -9999 -9999 -9999 -9999 -9999 -9999 -9999 -9999 
-9999 508.81605273385116561 508.8261646240130176 508.84353419922371131 508.8480047829813202 508.85260940665187945 508.8609613442350792 508.86866682576521725 508.88144906826721581 508.8997037673712498 508.91689834790781788 508.92029310748819171 508.92243698959975973 508.92468849957879229 508.92444702877799045 508.93042645494341514 508.92877340134873521 508.92913148616787566 508.91247038952985804 508.90378846858982342 508.8953094436113247 508.88060141908812284 508.87181694961867606 508.85693668658683464 508.85143543681414258 -9999 -9999 -9999 -9999 -9999 -9999 -9999 -9999 -9999 -9999 -9999 
-9999 508.78432364606470628 508.79867554000992413 508.81438439176082511 508.81388480221357895 508.82035279982784459 508.82809004175237533 508.835700558132487 508.84877743723978938 508.86934682685489406 508.88603371116607832 508.89579828066035816 508.90384280176834864 508.90314933198351355 508.90436038923098749 508.90799902842331903 508.90982839740570398 508.90480980086317686 508.89598120444560436 508.88437525607270118 508.87331250768733071 508.86272075144682958 508.85261050995643473 508.83724507045883456 508.82781778519995441 -9999 -9999 -9999 -9999 -9999 -9999 -9999 -9999 -9999 -9999 -9999 
-9999 508.74985004977150993 508.77725372124672276 508.77974039485701496 508.78053778447804234 508.78510965016857881 508.79495325357282809 508.80667216686327947 508.82340215836080688 508.83788071951886423 508.85395129662242653 508.86667857009445015 508.87714377548735456 508.87789144850745515 508.87781392294738225 508.88443602289254386 508.88139357609378521 508.882554767106285 508.87158873119358304 508.86255442797408932 508.85778921580066481 508.84021415099084606 508.82220394383972462 508.81267717264552175 508.80370342383150728 -9999 -9999 -9999 -9999 -9999 -9999 -9999 -9999 -9999 -9999 -9999 
-9999 508.7234717523987797 508.73304876540396435 508.74614856010549602 508.74616989359924446 508.75227882714943917 508.76291511739515272 508.78232580852926503 508.79541591000281642 508.80820005424340025 508.8216724617693103 508.83939905583554264 508.85117199878749261 508.84929331966293375 508.8479819524855543 508.85511011873421694 508.85821514754530881 508.85650280475397267 508.84720234321383714 508.84026374716080454 508.83435924428187036 508.81856294787235129 508.79555720526985851 508.78825149009696815 508.7776459934834179 508.77044066682736911 -9999 -9999 -9999 -9999 -9999 -9999 -9999 -9999 -9999 -9999 
-9999 508.68376517049085805 508.7047874595368171 508.72221512783107755 508.72758833826043201 508.73162952216989652 508.74905282527299732 508.75584623193191192 508.77199583683585615 508.78422830579580705 508.79478029954930207 508.81466959732722444 508.82528801281512187 508.81924457451742683 508.81833438848627793 508.81974810327869818 508.82266829477123338 508.82100272507648242 508.82118108263330214 508.81629072861187524 508.81299867357489575 508.80184674179616877 508.77609875129815009 508.76686163716112787 508.75361615403988935 508.74627849199544016 -9999 -9999 -9999 -9999 -9999 -9999 -9999 -9999 -9999 -9999 
-9999 508.64704777134477354 508.67882738234527551 508.69424807141956535 508.71571401363274845 508.71689753307907722 508.73360642813781851 508.73996522916684171 508.74925641004790577 508.75688492691028841 508.76922243680661495 508.79289628887948993 508.80239201546794447 508.7980147793496144 508.79568578243191723 508.7898591721391881 508.7940906539563457 508.79382963413314656 508.79082309095338132 508.78932075074703789 508.7867233182451514 508.77617524790247217 508.7564422049746895 508.74973931208870681 508.73027270215607132 508.72675940252946702 -9999 -9999 -9999 -9999 -9999 -9999 -9999 -9999 -9999 -9999 
-9999 508.63899120243183916 508.64381855784671416 508.67557471232044009 508.69889025733624521 508.69937790486488893 508.7117176126022855 508.71544849873134808 508.71745111041349219 508.73348336637820921 508.74373533936619651 508.76750540698327541 508.77324596751583385 508.77189820606923831 508.76655857994916232 508.75780062445141994 508.76491934661657979 508.76323653223158772 508.76387264974476921 508.76177965603653774 508.76416585520922808 508.75504567543214307 508.73286622057793238 508.7205358556661281 508.70818881996001437 508.7012487353329675 -9999 -9999 -9999 -9999 -9999 -9999 -9999 -9999 -9999 -9999 
-9999 508.62191744137453497 508.64549297653871918 508.6600501655905191 508.67478425036870249 508.67708711184519643 508.68153941500509063 508.68862990508017674 508.70389165108935003 508.70494805091215085 508.72069362027491479 508.73657467535070964 508.7407181610191742 508.74317895502235842 508.73874596709043772 508.73432776739275596 508.73913716551982134 508.73073307051731717 508.72663591093811419 508.73138163347624641 508.74373678500234064 508.73134309530956898 508.71274035637065936 508.70074908574997608 508.6756080916596261 508.66338540566118809 508.66831584130159172 -9999 -9999 -9999 -9999 -9999 -9999 -9999 -9999 -9999 
-9999 508.60405849989814442 508.61016806334350804 508.62572084605375267 508.64009811235973757 508.64950377692582606 508.65448717541028145 508.66536409013883713 508.6678494006166602 508.68026184002684431 508.68945775174034907 508.70275512173611787 508.71203470518810263 508.71753281916505784 508.71346592395809694 508.7132152432230896 508.71820476788997212 508.69844790594885353 508.69719252620870975 508.70758309064433433 508.71862572054840257 508.70700253499489918 508.70566457853749398 508.66965135168186407 508.63933684524198497 508.62435264256794198 508.63156164239046575 -9999 -9999 -9999 -9999 -9999 -9999 -9999 -9999 -9999 
-9999 -9999 508.575988510034108 508.60042640458374308 508.61328650904698634 508.62211573327607539 508.62283609929909289 508.62728954511857182 508.63145364485114897 508.64705767237711598 508.67135463879782264 508.67249282884370132 508.68888822878358269 508.69526024014083987 508.70068015377131587 508.69324467023477609 508.69003828507459275 508.67855166374704368 508.67273396946882258 508.67230500989376196 508.68027610210566536 508.68161810226882835 508.68193017697387859 508.6414615594649149 508.62452449341435567 508.59440284934902365 508.59380785849702988 -9999 -9999 -9999 -9999 -9999 -9999 -9999 -9999 -9999 
-9999 -9999 508.542549798838877 508.5581130551946103 508.58308194707785788 508.58491225821478565 508.5870110784278495 508.59119982138230398 508.59788905305993012 508.61278743276244541 508.63048370266352549 508.64950191217434394 508.66584776209089114 508.67319252687951803 508.66789438998733885 508.66789302008811546 508.66751529789269171 508.65567891785229904 508.64874793401088482 508.64820852688563946 508.65045178311993368 508.65493985819392719 508.65040785209748719 508.61314447435950115 508.58850620262870734 508.56261687881249145 508.5640268028626565 -9999 -9999 -9999 -9999 -9999 -9999 -9999 -9999 -9999 
-9999 -9999 508.51170520787923124 508.52696220337162458 508.55092576658927328 508.56294259026060445 508.56253293853580999 508.57138005489275656 508.5793592885279395 508.59494320608740736 508.60914084814481839 508.62855179633271518 508.64361379412764563 508.64916426969159602 508.64589984262522648 508.64856344505477637 508.64079409882094751 508.62647864283314902 508.61892131704405529 508.62316566934805451 508.62284612445716903 508.62615755647425431 508.60908986748592042 508.58142465998901116 508.55879821842000865 508.54233029546600164 508.5397423784799571 -9999 -9999 -9999 -9999 -9999 -9999 -9999 -9999 -9999 
-9999 -9999 508.4795168909221843 508.49534165364747196 508.5200622572432394 508.53573720458342677 508.54266895971653639 508.54748244251663891 508.55187266851277172 508.56811137817931012 508.58571885168663584 508.60732729822132114 508.61924655613529467 508.62395106344649776 508.62224093995962448 508.61474363186795244 508.61165136205238468 508.60854396703024349 508.59694512192777438 508.59398090754854138 508.59165324947275622 508.59080437566910859 508.57701352476158263 508.55313322789652375 508.54727161538886548 508.51790421913477758 508.51447386434472264 508.54381394643775138 -9999 -9999 -9999 -9999 -9999 -9999 -9999 -9999 
-9999 -9999 508.45651296798399699 508.4728240403297832 508.49369044014082419 508.50396684129111691 508.52212454390740959 508.53113508901145678 508.53315797966502032 508.54376965409227296 508.56637301546493291 508.58363899701839728 508.59526602004490314 508.59939117234745254 508.59137979058783685 508.58528886955480175 508.58359597835959676 508.5867716803797407 508.57564911920229633 508.5665683063683673 508.56415671583187077 508.56177743368533584 508.54988396572832698 508.53028378497185713 508.52628464281957577 508.49878929802866878 508.49461834144256045 508.51498323792918654 -9999 -9999 -9999 -9999 -9999 -9999 -9999 -9999 
-9999 -9999 508.43803052438244094 508.4456681952945587 508.46401028998917582 508.48120606728872417 508.49672973898424289 508.50558616543059998 508.51146503798116782 508.52506527261562042 508.54137001769595372 508.55504259281519808 508.56991823183358292 508.57281002007300685 508.5679232028289789 508.56298386537196166 508.55794304418077445 508.55951561180143017 508.54903602661460127 508.5415413084440388 508.5389964325947858 508.53416477104502746 508.52295767798909765 508.50702231884235971 508.49860376615367841 508.47714475445206972 508.47502522070084297 508.48151124163268832 -9999 -9999 -9999 -9999 -9999 -9999 -9999 -9999 
-9999 -9999 508.4062316952191054 508.41237144874776277 508.42831981868698676 508.45782844924741539 508.47392226590551445 508.48379639518850581 508.48928711157282123 508.5004854160092691 508.51698060056969553 508.52517431774441548 508.53881398398510782 508.53889252099378382 508.53722938711678125 508.53147507167034291 508.52750919092574122 508.52943981200570533 508.51930414967455363 508.51508353319871958 508.5089967648232232 508.50477394558203059 508.49684880700942813 508.50587844214180677 508.48087410683865528 508.45699905054033252 508.44270269218571912 508.43325179835989047 -9999 -9999 -9999 -9999 -9999 -9999 -9999 -9999 
-9999 -9999 508.36921206593433453 508.3821408578302794 508.39954151460602816 508.43477004037617917 508.44629636302238396 508.45417315244657175 508.4567406086076744 508.46822429566941537 508.48266555510582521 508.49011373429107152 508.50598946341511919 508.50744394414812177 508.50768974184404669 508.50263029008993954 508.49649702706108201 508.49815714819692403 508.49227282613287571 508.48593232709953327 508.48289086453775099 508.47455582976607502 508.47185154872676094 508.46606715698112566 508.45980848734171786 508.42947551906627268 508.41682461241481406 508.41146107452243541 -9999 -9999 -9999 -9999 -9999 -9999 -9999 -9999 
-9999 -9999 508.33944097744068813 508.35234029590583305 508.37705607350130776 508.40358586669043461 508.41652241602037066 508.42011058631203468 508.42836609928696134 508.43669552108212883 508.44933574033774448 508.46379840900033287 508.478749089959706 508.48150982156971622 508.48166447664277712 508.47575151512489811 508.47444363971328585 508.474501286297766 508.46393800097081339 508.45683829112437024 508.4500945083148622 508.44876187014000379 508.44952652298957219 508.43796080523361525 508.43031888699709953 508.40037993354900436 508.39580496255263142 508.37998052079910849 -9999 -9999 -9999 -9999 -9999 -9999 -9999 -9999 
-9999 -9999 508.31957224304062493 508.33047812660714726 508.34888533428414803 508.37230471547383104 508.38907869865954581 508.39412136665720254 508.40186031130667743 508.40655623008825614 508.41951629473163621 508.43841101470837884 508.44694826335586413 508.45601532977610759 508.45536489799968649 508.44939314318480683 508.44894491755013632 508.44961600702146143 508.43854943911355804 508.43504189755475409 508.4278212393925287 508.42383457826281301 508.42536167123449786 508.41685355095773957 508.4116784104989506 508.36593844180612223 508.36571767081977669 508.3524487693121614 -9999 -9999 -9999 -9999 -9999 -9999 -9999 -9999 
-9999 -9999 -9999 508.29608543925633057 508.32044786553024096 508.34579457122742951 508.35962726129605471 508.37193099871200275 508.37115661743087003 508.37779884085659887 508.38983981821996849 508.40014330104924056 508.41553763736351357 508.42685779754464193 508.4283813744639815 508.4234365969434748 508.42506887380272929 508.42194554609977786 508.41488449245173342 508.40746925361895592 508.40323301017940594 508.40071344341197346 508.399450907215396 508.38935913628006347 508.39357999107363639 508.34793231122773705 508.33769626039031664 508.32175313092170654 508.35189029267030492 -9999 -9999 -9999 -9999 -9999 -9999 -9999 
-9999 -9999 -9999 508.2741944659697424 508.28805891539161621 508.30755820159356517 508.32883011810440621 508.33611821957987331 508.34416494038606515 508.35359624666932632 508.36199429771727409 508.37114840570262686 508.38999311068567977 508.40040842036779623 508.40286268419737326 508.40019900686655774 508.39482555302561195 508.40294284079163845 508.39714828224362009 508.38606539538864126 508.38076290598218065 508.37740984308641146 508.37421352582850886 508.36439313903906623 508.35065327646566402 508.32075871695099067 508.3075950252336952 508.29426100130615396 508.29279716585637061 -9999 -9999 -9999 -9999 -9999 -9999 -9999 
-9999 -9999 -9999 508.24885437097873364 508.25450634751479129 508.27990156405411426 508.2967469924182069 508.3055710047343041 508.30929818873192971 508.32092217222816544 508.3292158545394841 508.34420296224641334 508.36191798408839304 508.37387869217855041 508.37789441371410248 508.37642384449458177 508.37042056497466547 508.3692873239027108 508.37049866439929247 508.36564758600889036 508.35187741297545472 508.34837905573760963 508.34450679134829443 508.33454628407281461 508.32167564855961928 508.28799815182998145 508.27286428315630928 508.26318941424932518 508.27934954464427619 -9999 -9999 -9999 -9999 -9999 -9999 -9999 
-9999 -9999 -9999 508.21533601392195578 508.22986420185674206 508.24218956634359756 508.26626684598841166 508.27310516918174699 508.28332920498178282 508.28931861113727564 508.30017225193364538 508.32158370977401773 508.33663940076684185 508.34535957920007831 508.35152681590966495 508.34663161204571225 508.34530576248158695 508.34137147763152598 508.36271772644926159 508.33930514260759992 508.32797801783692648 508.3228243890693534 508.32095699582032466 508.31008409240473611 508.29415283854569907 508.26744839494710959 508.24043526481864319 508.22655156715518388 508.24137041668655002 -9999 -9999 -9999 -9999 -9999 -9999 -9999 
-9999 -9999 -9999 508.18446852946175341 508.19710724852933481 508.20309949027711127 508.22738079589328208 508.24322097404308352 508.25287677871352798 508.26408503163662544 508.27467707144552378 508.28878058576532339 508.30087426365764713 508.31662776912804702 508.32205941553087314 508.32180808402301864 508.3143485340810912 508.31107899196354083 508.31759171463744451 508.31091571943801455 508.30073820969266762 508.29459574285181134 508.29480227997669317 508.28463714807628548 508.25776313521635075 508.24040579057640343 508.21646010372177216 508.20991094602294424 508.19666134679857805 -9999 -9999 -9999 -9999 -9999 -9999 -9999 
-9999 -9999 -9999 508.15183136394983876 508.15028374920512988 508.16605177281235228 508.18777894735507061 508.21360053864782458 508.22280271838047838 508.23271455669629404 508.24064629039236252 508.25822023991383958 508.27029278098865461 508.29012415625498988 508.29603642071339209 508.29770417370906443 508.28645160915510814 508.28978729386147961 508.2923761577252435 508.28572032754203747 508.2770290778904041 508.26600756320380015 508.2722207833959942 508.25660830926932476 508.23970651783253061 508.21919962031398654 508.18104557987601311 508.1850189187089768 508.16755870580391274 -9999 -9999 -9999 -9999 -9999 -9999 -9999 
-9999 -9999 -9999 508.1033605459730893 508.12095512956659604 508.13387581565137907 508.14949941353074792 508.18316634696515166 508.1928810503551972 508.20459677268559062 508.21430033826987938 508.23109077679833945 508.2474770178019412 508.26275194365013022 508.27162557448002644 508.26996300161323461 508.2600107867395991 508.2606963166409173 508.26569354507034859 508.25831404308263473 508.24759543511760285 508.23851964994622676 508.24016842469848143 508.22912121941016039 508.21187187017551423 508.1993687392049992 508.15569870103411176 508.14219364238755361 508.11485270433638561 -9999 -9999 -9999 -9999 -9999 -9999 -9999 
-9999 -9999 -9999 508.06334531331680182 508.08603254827130513 508.10113736830749076 508.11979486904317582 508.14726059127383451 508.16038466191702128 508.19740614483458785 508.18799525239381865 508.20409289204530978 508.22099308910782156 508.23954968928967446 508.24425245727115907 508.24673540816320383 508.23559463284323101 508.23371227063063316 508.23420337714725292 508.23292031856902895 508.21998338264859285 508.21097843051444443 508.21201437110835286 508.20185411796904873 508.1836940212714353 508.15549889538954176 508.12798109350256937 508.1130196758576858 508.11195683302139514 -9999 -9999 -9999 -9999 -9999 -9999 -9999 
-9999 -9999 -9999 508.04072421416390171 508.05765952752000203 508.07228313293103383 508.09353929647772929 508.11997998179998604 508.13482633024648294 508.14586908133713905 508.1606345093263144 508.17415504069879262 508.19043216851650868 508.20888420415002429 508.21610730399413569 508.21704648349884792 508.20841452920240044 508.2069721021642863 508.20830952387626667 508.20745880760728141 508.19363733756927104 508.18666936936790535 508.18235257459639342 508.17440831976381332 508.1570112701135713 508.14690453431319384 508.1099595020103834 508.09480114924093641 508.08095311169074648 508.09737875401947349 -9999 -9999 -9999 -9999 -9999 -9999 
-9999 -9999 -9999 -9999 508.02433815081934654 508.04488313988468917 508.06502742202292211 508.09952355076671893 508.11920241243154805 508.12323495307532539 508.1333599587998151 508.14401758442448909 508.16211940396965474 508.17719960054887451 508.18913601922184853 508.1909875363630249 508.18432443827776979 508.18289345932168999 508.17994932083985304 508.17899664421662465 508.17082139413787445 508.15654204636257418 508.15635602674979054 508.14577107984473514 508.13370900835002431 508.12000393220586147 508.08602640428847508 508.05627986003327123 508.03062406273784291 508.09515375695315242 -9999 -9999 -9999 -9999 -9999 -9999 
-9999 -9999 -9999 -9999 508.00283007701062843 508.0255002190164646 508.05430806517091469 508.0738218427579227 508.08537144107924632 508.09439149180508366 508.10290682727907097 508.11595941946274024 508.1313363707638473 508.14980220976718783 508.16356912489334263 508.1645381095211178 508.15721726815269221 508.15138060753389482 508.15223437116884497 508.15101792493169341 508.14468997002597916 508.13065688083719351 508.13103379508061153 508.122033845093938 508.10544345417628165 508.0904122382632977 508.05712462327306866 508.02341200635333962 508.01068950556577875 508.03053639050983747 -9999 -9999 -9999 -9999 -9999 -9999 
-9999 -9999 -9999 -9999 507.98607518973938113 507.99375687871321361 508.01753936971567782 508.04502706052051053 508.0566439864609265 508.06847940421567955 508.07809217649821676 508.08873725716557601 508.10432873700580103 508.12481352031028337 508.13557964978741666 508.13520721471149955 508.13066209013953767 508.12581290216525076 508.12607163957778766 508.12177113656599658 508.11381165083315636 508.10345188571352537 508.10038977908658353 508.09774065510896435 508.0776423886734392 508.06288566323576106 508.03023192774776362 508.00463534787166964 507.99568792160181374 508.0027229995214384 -9999 -9999 -9999 -9999 -9999 -9999 
-9999 -9999 -9999 -9999 507.96069563694663884 507.96916880478147505 507.98600608832310854 508.01073995650619963 508.0314314261254367 508.04180565227659372 508.04863668585028336 508.06030324799934306 508.07350386677023835 508.08621265722632643 508.10300516886616151 508.10724272466376306 508.10720779958393223 508.10526781679703845 508.09900346746093192 508.10060531192885946 508.08717640226780077 508.07932065919902698 508.0718315492629813 508.06936118821715809 508.05024280336061793 508.02677161952362894 508.00278113985518758 507.97913506648791326 507.96406778720893271 507.98320448228537316 -9999 -9999 -9999 -9999 -9999 -9999 
-9999 -9999 -9999 -9999 507.92469952101413355 507.93663658121192839 507.95762003275308416 508.01240397128918858 507.99916848897657928 508.01186238003458584 508.0151103151379175 508.0325089884628369 508.04488738530847058 508.05760175558191349 508.07367499956427537 508.0808396294549425 508.07784443833520527 508.07339840352221927 508.07121058107668432 508.074413804831579 508.06561625818284256 508.05259447305320464 508.04492896491541387 508.03921443370165889 508.02437293141747432 508.00224240962120348 507.98210407615613349 507.98253199231714916 507.93594437413037213 507.91661192401403468 -9999 -9999 -9999 -9999 -9999 -9999 
-9999 -9999 -9999 -9999 507.89830498758306021 507.92031003454201254 507.92953296334167135 507.9476024415299662 507.96788303419327804 507.98296366136423785 507.99532203333399139 507.99840594011408257 508.00964157173416424 508.02628489409443091 508.04309853267568542 508.0531132209123939 508.05395447614063187 508.04601575557546767 508.04756698785155322 508.04896098125033177 508.03739950149349625 508.0237334404701528 508.01468270581506204 508.01301597503550056 508.00077013868497033 507.97767620312959025 507.95945820809231463 507.93989348371690085 507.92120134295191747 507.90532253327626222 -9999 -9999 -9999 -9999 -9999 -9999 
-9999 -9999 -9999 -9999 507.86748148849159179 507.86971403229631505 507.89028240205294651 507.91113550619417083 507.94012182777953512 507.95301877484007491 507.95998157825130193 507.99000677854019159 507.9814359265837993 507.99625549978452455 508.01402255848080358 508.02485484905309931 508.02856663397716375 508.01973493388499037 508.02044078753988288 508.02025792941009286 508.01028610903540539 508.00097028457503257 507.98837449163892188 507.98702474028056031 507.97537107863422534 507.95479601492161237 507.93242652233368517 507.91315502971514206 507.88256304029840749 507.86608676746664059 -9999 -9999 -9999 -9999 -9999 -9999 
-9999 -9999 -9999 -9999 507.82454344376600375 507.84370948042811733 507.85728954630059206 507.88382796070385439 507.90360547386717371 507.92203006235945395 507.93399149845976126 507.94158372432144688 507.95418359490321336 507.97489769144351612 507.98690659368509159 507.99888146921597354 508.00182849969388599 507.99602761353742153 507.99843862474000389 507.98936701973690333 507.98219077035565761 507.97136194260326647 507.96066844888395053 507.9591825424914191 507.95146821400174986 507.93133358359330032 507.9057727940089535 507.88370429048370625 507.85436407357315147 507.845979865387676 -9999 -9999 -9999 -9999 -9999 -9999 
-9999 -9999 -9999 -9999 507.79728555155588765 507.82014637985292893 507.83220582443681224 507.84853736482847353 507.87524343497244672 507.89669280421918529 507.90597930703421525 507.91381061711274469 507.92500853389947224 507.94540501495686158 507.96208042059379295 507.97613905597341954 507.97903000124250639 507.97214844846638471 507.97223451956892859 507.9685104722228175 507.96194749339503005 507.94806585045171232 507.93362819968359645 507.93154789365661372 507.92093424628529874 507.90594834044372874 507.88147380185370139 507.84712039095330738 507.82158474502546142 507.80864661807686389 507.82384255260046757 -9999 -9999 -9999 -9999 -9999 
-9999 -9999 -9999 -9999 507.77107161127429436 507.78492290767530903 507.80172069109499944 507.82116840253189594 507.84537424408853212 507.86850413813931482 507.87516823616664396 507.89047128655062124 507.89933780183991985 507.91987341274909795 507.93503505338321702 507.94711857827905988 507.95332953334172998 507.94859211618177142 507.94073904671824948 507.93771227487991382 507.93109381750855391 507.9218975092733217 507.90893268266893301 507.9034636911447933 507.89628620098733336 507.87911758806035323 507.8522159176934565 507.82312185637761104 507.78780967859188422 507.77985561133812098 507.77717615716363753 -9999 -9999 -9999 -9999 -9999 
-9999 -9999 -9999 -9999 -9999 507.74851123017720056 507.76710110370498796 507.79681367073806086 507.81591042938555347 507.8384098454183686 507.84633910935605172 507.85756802317303027 507.87262878805381661 507.89025602300796436 507.90714275144512158 507.91955694494572526 507.92250149374439161 507.91579845718973729 507.91205525772357987 507.91075514186439932 507.90420183279809407 507.89567537002477593 507.87916441787461963 507.87852317890434506 507.86921856633125572 507.84689582979160605 507.8223019649662433 507.79224514556625536 507.76741262905784424 507.72689897666447223 507.74574077142858641 -9999 -9999 -9999 -9999 -9999 
-9999 -9999 -9999 -9999 -9999 507.72751067429766181 507.7439126418912565 507.7597041483224416 507.78565244413596247 507.80534340019522688 507.81790509713346182 507.82996122553902296 507.84483016233809849 507.85875209561237398 507.8759096312144834 507.88951289666567845 507.89849654999540007 507.88977230672844598 507.88239220885498071 507.88079408832862782 507.87583385145978809 507.86685203039803582 507.85067518489699978 507.84945229583070159 507.84375655200040001 507.82313414999413226 507.79286260530005848 507.76998667211955762 507.73044937360987205 507.71183975287505064 507.69358427529323308 -9999 -9999 -9999 -9999 -9999 
-9999 -9999 -9999 -9999 -9999 507.70534641927935127 507.71137630709768018 507.72869803000429556 507.75959017772515836 507.77954342615259975 507.79633156350416812 507.80298864388817037 507.81482696834746093 507.83025357667554545 507.84655307860310813 507.86033952600939756 507.87258989716548285 507.86362862278099328 507.85316501373296205 507.85378519458743085 507.84361663806384968 507.83550303646563862 507.82482953505018486 507.82108175665513272 507.8150955598599694 507.79424424358927581 507.75889966943248055 507.73215387186093039 507.71142510652589408 507.69424650385172981 507.66738211060066988 -9999 -9999 -9999 -9999 -9999 
-9999 -9999 -9999 -9999 -9999 507.66576357903954886 507.67956026073937892 507.70609400267625233 507.73384182497665051 507.74822177285989255 507.76766147234383197 507.77474019363762636 507.79155339968053795 507.79810150588468787 507.81600930247401493 507.83133896014692255 507.84117964926900868 507.83692308355517753 507.82832276056325327 507.82898526411923967 507.82075664425394734 507.81062661267128533 507.79878203149428373 507.79668638082131338 507.78558138497868413 507.76309763250981177 507.73497542466924415 507.71240222141074128 507.6883824233126461 507.66399026097269598 507.64221734583315992 -9999 -9999 -9999 -9999 -9999 
-9999 -9999 -9999 -9999 -9999 507.63952945061680566 507.65333541432175934 507.67833397972503917 507.69831903453348332 507.71705080035422952 507.73491097293367602 507.74399907569522838 507.7544523450694669 507.76916202753892549 507.78951333557711223 507.80560820923341225 507.81447283877395193 507.81144889328783165 507.80772119103971818 507.80230972743390794 507.79773511321405977 507.78549872473655569 507.77498499458698689 507.76759972232736118 507.75667254887702029 507.73987080378196879 507.7077482630617169 507.68478099044818919 507.66933433540378928 507.64513613070641895 507.61177037102368104 -9999 -9999 -9999 -9999 -9999 
-9999 -9999 -9999 -9999 -9999 507.60594408835123659 507.62995153929472281 507.64953485199225725 507.66991193148771799 507.69320555484438273 507.70459217339356428 507.71567675093956495 507.73382470381096709 507.74939374328641861 507.76676951506857449 507.78206668411132796 507.78822738248089763 507.7878867275153425 507.77999429639498885 507.77758145454413352 507.76676055792859188 507.76135143744772904 507.74535318880941759 507.74038243158616979 507.72950651488935137 507.71125668070203574 507.68412704679798253 507.66095260902829978 507.64424088048144768 507.60760881667988542 507.58227758365035243 -9999 -9999 -9999 -9999 -9999 
-9999 -9999 -9999 -9999 -9999 507.5809216211038688 507.60206068813442926 507.62166836975143269 507.64469881634033754 507.66279100670260505 507.6782032078552902 507.69078966554013732 507.70492390563947538 507.71997997977376826 507.73854142844118087 507.75446901964136259 507.75773822273362157 507.75771742620281657 507.75041137043240269 507.75001770131603962 507.73971215453934747 507.73270429703018181 507.72024097937634224 507.70991228970143538 507.70364992209584898 507.69109590783409658 507.65759976049690749 507.64085001791369223 507.61483018598460148 507.59282454567807008 507.55867237746315368 -9999 -9999 -9999 -9999 -9999 
-9999 -9999 -9999 -9999 -9999 507.55403526924322932 507.57069780586607521 507.59285404060943847 507.62136142912328296 507.63505475805754941 507.65265080286911825 507.66599745932671794 507.67628704674933715 507.69481381873606551 507.70967654244469713 507.72596302706512006 507.7321886930356527 507.73309344818795807 507.7287857156978248 507.72141066251231223 507.71472080493015255 507.7030299697190685 507.69395652011900211 507.68342702709878722 507.67621809102973884 507.6605866889053118 507.63180677262232621 507.60267500374612837 507.58582673309001621 507.56569457149998925 507.52746446220527332 -9999 -9999 -9999 -9999 -9999 
-9999 -9999 -9999 -9999 -9999 507.52879716814760513 507.54828232139027477 507.56566336286584828 507.5895404797817605 507.61651307153414336 507.63055541648810731 507.63898784275869502 507.64857482643031972 507.66327620687746958 507.6821307403978949 507.69665650330875906 507.70590562489536524 507.70470653169280695 507.69889632928988021 507.69258483212411193 507.68671783173800804 507.67730979794356472 507.66673994199345543 507.65533634875311009 507.64754304385678552 507.63081670946604618 507.60984885766401931 507.57927699458196003 507.56990336896325289 507.54009877855384048 507.51140680913653114 -9999 -9999 -9999 -9999 -9999 
-9999 -9999 -9999 -9999 -9999 507.49831794570644661 507.51387391161028972 507.54391895970377391 507.56301807198548204 507.58168215934870204 507.60034072111176329 507.6081332085288409 507.62322943233425576 507.6361201254160278 507.65304796644903718 507.66644877203975739 507.677070071437754 507.67614860736665605 507.67158224357791596 507.66664898846886445 507.65843974292374696 507.65008764814285769 507.64087110517061774 507.62783895461700467 507.61884929767990116 507.60286811833276488 507.58017035291305774 507.55254108976737371 507.54638670689894298 507.51401450302989815 507.4917066886719681 -9999 -9999 -9999 -9999 -9999 
-9999 -9999 -9999 -9999 -9999 507.47304583972379532 507.49422114150866037 507.51446640347450057 507.52973316795134906 507.55403354552993278 507.5740318571938019 507.58244689530562255 507.58939947038152241 507.60251957931831157 507.6227210043332434 507.63852589459719411 507.65166508351632046 507.65449773601187644 507.64365731371896118 507.63508939525365804 507.63045192174371323 507.62621539112296887 507.61326991427000621 507.60432554709137776 507.59439142160840674 507.58043498260258275 507.5518687836679419 507.52619248777438088 507.52189963666864969 507.49306300871563735 507.47332096222521614 -9999 -9999 -9999 -9999 -9999 
-9999 -9999 -9999 -9999 -9999 507.44101221064329366 507.46652048974681293 507.49200036746765363 507.50239161446199887 507.52828028327280663 507.54178290543262619 507.55107465114855358 507.55913114447918133 507.57457523594473514 507.59401827343458535 507.60988614420119802 507.6230084063903405 507.62460627169741656 507.61554396805337319 507.60793242562073146 507.60427446731904411 507.59270843712425858 507.58506521045609361 507.57764650856074695 507.57127622003667966 507.55157006412912324 507.52977219385383023 507.5052543323588452 507.48757892371827438 507.46502087827377636 507.43654723411725627 -9999 -9999 -9999 -9999 -9999 
-9999 -9999 -9999 -9999 -9999 507.41398104392897039 507.4387332525981833 507.46023830082117456 507.47697632707325965 507.50137094168223939 507.51164292348641993 507.52338244104612386 507.53233864904370876 507.54612617592061952 507.56503474930144648 507.58229295220667154 507.59175809073553864 507.5943745173217394 507.59025342246059154 507.58115570621498591 507.57589956881372473 507.56821982005408245 507.56109668810381663 507.55366291493999142 507.54492324813014648 507.53272089042468451 507.50126258045281702 507.47888501494696811 507.45843416621966071 507.43868293860816721 507.42963180044722549 -9999 -9999 -9999 -9999 -9999 
-9999 -9999 -9999 -9999 -9999 507.39098841186887512 507.42586505523934193 507.42343659719216475 507.44754182978368817 507.46959711775230062 507.48370898663819162 507.49965966930517425 507.50806338617803704 507.52185572471393016 507.53799403466121021 507.55320806064798944 507.56388176826993686 507.57184125155816901 507.56871522521953466 507.553481761711339 507.55143410255624303 507.54309547901834776 507.5363958692926758 507.52691454348962452 507.51876813483687556 507.50127874715462895 507.4766574786180513 507.44595788979108875 507.4302880731746086 507.41256838791093742 507.39422289751183826 -9999 -9999 -9999 -9999 -9999 
-9999 -9999 -9999 -9999 -9999 507.36318148138451534 507.38105431576218507 507.40512491702588704 507.41833724185795518 507.44230433947342362 507.45710039073600228 507.47349076016718072 507.48077808876490735 507.49404409772762392 507.50723751991341715 507.5265220132961872 507.53882609137644977 507.54594743646345023 507.54250733992546429 507.52774388232813862 507.52190139528795498 507.51374256313636124 507.50651013364966957 507.49944619788362843 507.49320851466495697 507.47384725069588285 507.45287598577772314 507.42747217729316844 507.4152832996207394 507.38701990516324258 507.37134014221362577 -9999 -9999 -9999 -9999 -9999 
-9999 -9999 -9999 -9999 -9999 -9999 507.34935947196868256 507.36775370740929247 507.38724878784285011 507.42047220022425336 507.43119204015772539 507.44612755135761972 507.45611181008308677 507.46651185372246573 507.48082380718494733 507.50075106533540747 507.50970714613418977 507.51580633302398837 507.51412488278367618 507.49953313451931081 507.49837426987681965 507.48570981457169182 507.47981809528943131 507.47236120964743122 507.46701679251577843 507.44835253906717298 507.4263301562367019 507.40038834673191559 507.38566811621984698 507.35732138656135248 507.34280763715077001 -9999 -9999 -9999 -9999 -9999 
-9999 -9999 -9999 -9999 -9999 -9999 507.32047253108038376 507.33773424306298239 507.36170557554243032 507.38933380937106676 507.40671512245171471 507.42433846961114341 507.43123595081914345 507.44149419313168892 507.45532290051846758 507.47312102855573812 507.48038193678229391 507.49210548895655393 507.4893082830232629 507.47040334846570886 507.46638256425103464 507.46025631895844299 507.45321967370631455 507.44491025433887899 507.4413825004149885 507.42182191762236698 507.40513864221878748 507.37379372666583777 507.35744257758085496 507.3301189986590316 507.32011286923130911 -9999 -9999 -9999 -9999 -9999 
-9999 -9999 -9999 -9999 -9999 -9999 507.28450756789686693 507.31360071543713275 507.33356353129585159 507.35676167004334047 507.37698525257098936 507.39421803421220147 507.40392679739113646 507.4106979592610287 507.42558851087483163 507.44060076720074903 507.44967162010442507 507.46335140949520337 507.46502100597081153 507.45274038336452804 507.4435290694896139 507.43509553088597386 507.42682923034948317 507.4211944586306231 507.41454182600273271 507.39388786290669486 507.37273962877458189 507.34453340251798181 507.33135673174416524 507.30612756068290992 507.28193103705763178 507.322435573069356 -9999 -9999 -9999 -9999 
-9999 -9999 -9999 -9999 -9999 -9999 507.26518941769069215 507.28508281199702878 507.3069996136281361 507.32562363903468849 507.35132417489586487 507.36967410424722402 507.37905481846723887 507.38755501553146132 507.39968508449766205 507.41207452882565576 507.42191655797654448 507.43717313349299047 507.43696862712306483 507.42858359263919965 507.4170839978740446 507.40981560028518516 507.40265965758277389 507.39521562243464814 507.38518746276901084 507.36715206718133686 507.342243301814392 507.31364260907974995 507.30115323729501142 507.27998645632783337 507.26512956029694124 507.23328462885666568 -9999 -9999 -9999 -9999 
-9999 -9999 -9999 -9999 -9999 -9999 507.23497325134638913 507.25541091176700093 507.28102157491753132 507.29964881482749206 507.32057267850291282 507.33888607656308523 507.35128788744202666 507.35994844838120343 507.36973896229471848 507.38237736481033835 507.39552648005195579 507.41092355747082365 507.40893266725589683 507.39923784302300191 507.38793394723961683 507.38272191967359959 507.37680372403337969 507.36841060191562747 507.35738796980780307 507.33716265998612016 507.31788100582741663 507.29317520103154493 507.27865451625552851 507.26245271252582825 507.23591293550282444 507.27198920228778434 -9999 -9999 -9999 -9999 
-9999 -9999 -9999 -9999 -9999 -9999 507.21123045045015942 507.23645067612517323 507.25328987437472961 507.27366311327551784 507.29125324636788719 507.31163263124790319 507.32443379583958176 507.33168599804855603 507.34256274512239315 507.35365777720744518 507.367962465033429 507.38222647968842693 507.380867125930763 507.37484154366376288 507.36166696068102056 507.35219683783094524 507.35100206163775738 507.34188433880518687 507.332854073504393 507.31154132739305851 507.2865626911195136 507.26714004934399327 507.25008526457457947 507.23219390734152512 507.20720430957612734 507.16177794369855292 -9999 -9999 -9999 -9999 
-9999 -9999 -9999 -9999 -9999 -9999 507.18017704164270754 507.20817297550217972 507.22236317179437037 507.24199440557759999 507.264098790722187 507.28512309062097074 507.28794268939861922 507.30590190754691093 507.31326294898241258 507.32755242237402626 507.33993255691996183 507.35309805626997104 507.35405873666707066 507.34347613860700221 507.33438027564363892 507.32484571545882091 507.3247190425791473 507.31565075255957709 507.30490857688545248 507.28881844874587159 507.26409384407139669 507.23941720418901014 507.22237698356002511 507.18727411882520073 507.18422551102617035 507.14592930771345891 -9999 -9999 -9999 -9999 
-9999 -9999 -9999 -9999 -9999 -9999 507.14682024247588288 507.18269396308244268 507.19415699374860651 507.21533106098024746 507.2389137336422209 507.25523065425011282 507.25906141423257623 507.27564503012911246 507.2840481206600316 507.29893608217753354 507.31184213227606961 507.32830713665134681 507.32628394564278551 507.31713998587883907 507.30725983391749878 507.29639622661858311 507.29455198003580563 507.28826928153927156 507.27625283735608264 507.25692118810673037 507.23436539283085267 507.21089530130075218 507.18823695630277371 507.16053369520585647 507.15335819458152855 507.1038021848823405 -9999 -9999 -9999 -9999 
-9999 -9999 -9999 -9999 -9999 -9999 507.12747515961262934 507.14611130423594432 507.18906634408324408 507.18928365930088376 507.20993115187422973 507.22800978983889308 507.23438756607765754 507.24857187442967188 507.25804735424571845 507.27255211062015405 507.28424999386930949 507.29810641036613106 507.29784103296168496 507.29076166541193516 507.27901636196560275 507.26891138988696639 507.26541074603341031 507.26015940639081236 507.24874342334373978 507.22870104357878063 507.20998084242648929 507.18534378089259462 507.16305513705907515 507.13892150556131355 507.12838816097041672 507.09924180644975422 -9999 -9999 -9999 -9999 
-9999 -9999 -9999 -9999 -9999 -9999 507.12799604025877898 507.13309820353407531 507.13627730824902073 507.15728900840338156 507.18290184835836953 507.19942355022254787 507.20590936733862009 507.22082662777285123 507.23039455677439946 507.2438154827985386 507.25483984804577631 507.26687956934438262 507.27000823566908139 507.26075927378263941 507.24987407947452311 507.23839546004148815 507.23873674223909802 507.23262748387060128 507.21586488975111706 507.20092230291550095 507.18013924500615985 507.15731119497968393 507.13431306415338895 507.1091047097727369 507.09523406392872857 507.02633861156783723 -9999 -9999 -9999 -9999 
-9999 -9999 -9999 -9999 -9999 -9999 507.06178081647351519 507.08868655641566647 507.11542574823067753 507.12825179272073228 507.15235173649915623 507.17292832929598489 507.17997679499057995 507.19343654725867054 507.20233672081093346 507.21387454954765417 507.22497204099647661 507.24029333795380126 507.24409585634458608 507.23370464746085418 507.2293109917146694 507.21540660444838977 507.20745815719732263 507.20412269373861136 507.19249036489173932 507.17475319741851081 507.15463882677397578 507.13018331795791482 507.10814550074962881 507.07995495240305672 507.0608210113020391 506.9900994906453775 -9999 -9999 -9999 -9999 
-9999 -9999 -9999 -9999 -9999 -9999 507.04086050871495672 507.05729296826876862 507.08529062873066096 507.1036465340884547 507.12447700063501088 507.14400291092857742 507.15508578223477798 507.16508531932765891 507.17445103169251297 507.18565556261643223 507.19613679831871877 507.21139338695877541 507.21882564866115217 507.20446922547591839 507.19403437149497904 507.18410532211953523 507.17805002784524504 507.17639766416425573 507.16464253993723332 507.14347806744694935 507.1272946948767526 507.10813518984991788 507.07666159582868204 507.05734316207951906 507.03338424641049187 506.95543450351203774 -9999 -9999 -9999 -9999 
-9999 -9999 -9999 -9999 -9999 -9999 507.0124800712331421 507.03142789695993997 507.06541379663445923 507.07534553243522168 507.09441514099063397 507.11517657645600821 507.11969745799615339 507.13286905719957076 507.14883040469351272 507.15746419916223431 507.16815059787387554 507.1800961951971658 507.18798066818806092 507.17998868259257961 507.17016521163924381 507.16002146118398741 507.15192624936582888 507.14872979271689246 507.1365635523075639 507.11791721757714413 507.10092840582524332 507.09491966874207947 507.05409998112185121 507.03061090540080613 507.02608311303208666 506.95272413445530901 -9999 -9999 -9999 -9999 
-9999 -9999 -9999 -9999 -9999 -9999 506.99056720623894989 507.00736972113259071 507.0367635718110364 507.05011419450710264 507.06791876165652866 507.08700401083785891 507.09787399783635919 507.1112895362352333 507.12020095334958114 507.13042241845744229 507.14170695496193275 507.15425326573932807 507.16185578272296652 507.15493224495048707 507.14369034858771101 507.13423619914112805 507.12555104535334749 507.12198946412752321 507.11216103393826415 507.09379835491569111 507.07608078875455249 507.05148600137113135 507.0268208345524954 507.01002333886748374 506.99147417347614919 506.94319137026752742 -9999 -9999 -9999 -9999 
-9999 -9999 -9999 -9999 -9999 -9999 506.95941595406048918 506.99873587976395584 507.01046644275635344 507.02340887346588261 507.04253425273492439 507.05882456551790938 507.06884825937504502 507.08408107305160684 507.09194400641348466 507.10218095457105392 507.11529270411404013 507.12820265138077502 507.13635536856327235 507.12477241683836837 507.11521132132986622 507.10484224873806625 507.09783827354465302 507.09407684425866591 507.0836757106604864 507.06628777270589126 507.04464001837726528 507.02467541276752172 507.00467112801004532 506.98511453560053042 506.96834707528046238 506.91689880649482802 -9999 -9999 -9999 -9999 
-9999 -9999 -9999 -9999 -9999 -9999 506.93322446326010322 506.94619448706743015 506.979726998838089 506.9979221975532937 507.01023768859482743 507.02932296113408484 507.03878413996312702 507.05265595826762137 507.06368551152098689 507.07294177021145742 507.08619125096868174 507.09989036452742539 507.10577369556926897 507.09752078386662788 507.08975802319366721 507.07938299170672281 507.06840666353480174 507.06589623756678975 507.05706746628811743 507.03988632421339844 507.02009424512493752 507.00035552181458343 506.97725997213183291 506.94734511203824923 506.94510586151170628 506.91024737778434428 -9999 -9999 -9999 -9999 
-9999 -9999 -9999 -9999 -9999 -9999 -9999 506.92213068687675559 506.95143056148367577 506.97550299163611953 506.98834980161626618 507.00392565326103522 507.00964179654363306 507.02300295955922138 507.03464548485817431 507.04380262589580752 507.05908133989362341 507.07045467892601209 507.07799681801799352 507.07313576161772062 507.06098497726094365 507.05320647034858439 507.03962807472032637 507.03898168752004949 507.03033142143522127 507.01184361068158069 506.99355852846554171 506.97715284681595449 506.94799335455905975 506.91915717748548786 506.91681294645877642 506.84244752201925621 -9999 -9999 -9999 -9999 
-9999 -9999 -9999 -9999 -9999 -9999 -9999 506.93388436646785067 506.94435196691523515 506.9445947112951103 506.95963424579184675 506.97556176997414923 506.98373618322779066 506.99226234262141588 507.00577968376563831 507.01466058767545064 507.03074166137855627 507.04170013440273124 507.05129069307309919 507.04451146893541136 507.03142732764274569 507.02133563659737092 507.01329742443806481 507.01086435456011259 507.00467847355753293 506.98671671327656441 506.96602773025603028 506.95050593756764101 506.91431757472571462 506.88020709521373419 506.87949900442202988 506.83598182781798869 -9999 -9999 -9999 -9999 
-9999 -9999 -9999 -9999 -9999 -9999 -9999 506.86642922924954746 506.89091260200973466 506.91315200121181306 506.93643059592886857 506.94611466346344741 506.95866631241034383 506.96490975025022863 506.98034040467524619 506.99255465145256494 507.0029911136600731 507.01330096935697611 507.02263737182073555 507.01558822983201935 507.00337981334229198 506.99585605532513455 506.98303596012056005 506.9821236841960399 506.97388201793603457 506.95895450167080298 506.93683840334665547 506.91515339756904268 506.8845883217690016 506.86659991320050267 506.8431666673201903 506.80466803265215958 -9999 -9999 -9999 -9999 
-9999 -9999 -9999 -9999 -9999 -9999 -9999 506.84105246788334398 506.85725614453230037 506.88491716573253143 506.9026158266543689 506.91794182309490679 506.92954359464511072 506.94268844786023465 506.95262988235992907 506.96150819428447676 506.97379242481275696 506.98394141352451925 506.99360134540961553 506.98475509337123412 506.97581067136337651 506.9652395071105957 506.95536498458278629 506.95256207438842466 506.9451672514129541 506.93048783291470727 506.90773413059986297 506.88410486959105583 506.85956573087770494 506.8403566584793225 506.82935361419572473 506.92299005396307621 -9999 -9999 -9999 -9999 
-9999 -9999 -9999 -9999 -9999 -9999 -9999 506.81043939940059317 506.82954437754278842 506.85990271394751971 506.87414264376093342 506.88925140793992341 506.90163213485823235 506.90822781903250416 506.92373406413764769 506.93093074658821706 506.94460290687356974 506.95275051369225139 506.96382227385635133 506.95385590359586558 506.94509711683775777 506.93894823196654897 506.92910204748710612 506.92480115529184559 506.91760006343400846 506.90410753033421543 506.88318872471944587 506.86075629534695963 506.8302001216940198 506.81577081910359084 506.80127149881047899 506.95754255567948121 -9999 -9999 -9999 -9999 
-9999 -9999 -9999 -9999 -9999 -9999 -9999 506.77336900538944064 506.80576180401391184 506.82844328780902288 506.84629059621101987 506.86304799475317395 506.87043142966848563 506.88338909979341906 506.89559886011937806 506.90175476277698863 506.91650075852965074 506.92372313310960408 506.936034345542339 506.92941994449779486 506.92206551514919965 506.9104746037776863 506.90195312021035079 506.89803114326304012 506.89305838503258883 506.87867233063781214 506.85633107678330589 506.83682056892155288 506.80832783398960828 506.78164139158923263 506.77378296163715277 506.93676104732094245 -9999 -9999 -9999 -9999 
-9999 -9999 -9999 -9999 -9999 -9999 -9999 506.74692447034055931 506.77472865978438676 506.80056550969925411 506.81324962379301269 506.83236471292775605 506.84226758155745074 506.85120834150717428 506.86501157065390544 506.87520080673425582 506.88687035735591735 506.89428932440745257 506.9079042693965107 506.90346395013290248 506.89419914822929059 506.89361101614002791 506.8730947287273807 506.86615516239243107 506.86483789251832377 506.84766610096221484 506.82611746093175498 506.80633471250479261 506.77491432272859129 506.74970749021395022 506.73677335577531267 506.93244927266107425 -9999 -9999 -9999 -9999 
-9999 -9999 -9999 -9999 -9999 -9999 -9999 506.72255969623012106 506.75007612438139404 506.77400843668823427 506.78930799583110911 506.80794866180661984 506.81889810279153608 506.82923964640212944 506.83575193715432761 506.84253238585722556 506.85711790818078271 506.8663825012780535 506.88293276443948798 506.87898995196604801 506.86688709357213156 506.85663977115655143 506.85192081060063174 506.84182059429969058 506.83487110428160349 506.81983554585724505 506.79709943492753155 506.76952880435112547 506.74727377940041606 506.72746809713788707 506.70652774877760294 506.65906596103394577 -9999 -9999 -9999 -9999 
-9999 -9999 -9999 -9999 -9999 -9999 -9999 506.68912766281096083 506.7218036904612859 506.75825741175788153 506.76137300157125765 506.78059992413540158 506.79741193892090223 506.80228393093625527 506.81040478465530441 506.81671283058994959 506.83352039050430449 506.84071511798094889 506.85216341047419064 506.84851136698273422 506.83716918215407077 506.82584045675406514 506.82216509797649451 506.81229607965337891 506.80561630060179823 506.78893790912337636 506.76787226902848715 506.74593279529176471 506.72041284734967803 506.69785852531532555 506.68137931942953855 506.60052055546140082 -9999 -9999 -9999 -9999 
-9999 -9999 -9999 -9999 -9999 -9999 -9999 506.66256017081514074 506.70381157360429825 506.71958175609302089 506.73252263177965915 506.7515735555944616 506.76602156913230601 506.7708252177144459 506.78425254051495585 506.7922589977710004 506.80795803511256281 506.8095795854823109 506.82100659780871865 506.82167720428327584 506.80993896025154299 506.79777487899536936 506.78874338829467661 506.78295659056232125 506.77581421282530982 506.76216558590738259 506.74170399211703852 506.7151768280439228 506.69274595808337835 506.67002329698925678 506.66024904791879635 506.57006320992962856 -9999 -9999 -9999 -9999 
-9999 -9999 -9999 -9999 -9999 -9999 -9999 506.62997683759044776 506.66161376919308168 506.68702969205941145 506.70599540815686623 506.71831626043876895 506.73693219282728251 506.7426850854852205 506.75700258652517505 506.76473009133229652 506.77658465408387656 506.77914970799156436 506.79195981586065045 506.79483666954899945 506.78279728158349826 506.77495570195458185 506.75919920828329168 506.75193663377524445 506.74844693346682334 506.73448599106495749 506.71046110540845575 506.68661007426544529 506.66648151529960842 506.6365373495770541 506.61459159074411218 506.5573828855825127 -9999 -9999 -9999 -9999 
-9999 -9999 -9999 -9999 -9999 -9999 -9999 506.6107415446093114 506.6366585778015974 506.65768392679439103 506.6782163194056352 506.69482900358900679 506.70844571784624577 506.71084031081693411 506.72104669167367774 506.73684014941301257 506.74716183052578344 506.75149037469930136 506.76789848413187656 506.77089202705769821 506.75513348010423442 506.74476244803832969 506.73176160315466632 506.72463083670231754 506.71989016029800723 506.70832935466944491 506.68717194737126874 506.66006800369302709 506.63917465095170201 506.61685114486482462 506.58797815498007822 506.5911364526058378 -9999 -9999 -9999 -9999 
-9999 -9999 -9999 -9999 -9999 -9999 -9999 506.57897401899526812 506.61172501775524779 506.63271404656592267 506.64478548276491665 506.66702310275070431 506.67666319190749391 506.68391154318385361 506.69370902909895449 506.70880129599612474 506.72066651199651233 506.72638921847914162 506.73869534525454128 506.74295832195002731 506.73155986600056622 506.72128824154373206 506.70447920583791301 506.69753250279086387 506.68939639222872984 506.68050135145557533 506.65759609489344939 506.63484253656281453 506.60746923161360655 506.58024462469825266 506.56336623065362801 506.49842347119982833 -9999 -9999 -9999 -9999 
-9999 -9999 -9999 -9999 -9999 -9999 -9999 506.55341821776647748 506.58399581731151784 506.6106760776262945 506.62056671854963952 506.63181135003372901 506.64606367581865243 506.65700797595485483 506.66730732337589416 506.67920498098413873 506.68965677738668774 506.69804599975242354 506.70699792767334202 506.71127450929532188 506.69947162786991157 506.68764552807868995 506.67609917235540706 506.66723061452029242 506.66175425370818175 506.65111331336294143 506.62804217803619622 506.60649808542234496 506.58090235213336427 506.5503300986045474 506.5377912953601367 506.49432485205920784 -9999 -9999 -9999 -9999 
-9999 -9999 -9999 -9999 -9999 -9999 -9999 506.52164657688689431 506.56034856213102557 506.5669176601480217 506.58658127193865539 506.60683310041764571 506.62123378635448034 506.63145326641983957 506.64157811635777762 506.64757586215637275 506.65716671924201364 506.66687575104890584 506.67618492017629706 506.68181919541723346 506.67084587990063937 506.65949268564361319 506.65126944755024851 506.63938209034427018 506.63488006827481058 506.62217920613727529 506.59946295712245501 506.57883476807069201 506.55103074050668965 506.53018169012568706 506.5086762919027592 506.43075245626357628 -9999 -9999 -9999 -9999 
-9999 -9999 -9999 -9999 -9999 -9999 -9999 -9999 506.51571326970531572 506.54472304968476237 506.55964989644030538 506.57984284731458047 506.58825159248203818 506.60057350202271209 506.61262755767330646 506.62141913575260332 506.63045713707379036 506.63693315626028379 506.64605156920754325 506.65854217116208247 506.64286349275903376 506.63116251583795702 506.61912817257143615 506.60911671006829238 506.60493289703975961 506.59515052137192015 506.57402827650014387 506.55338337325918019 506.52854035295655422 506.50227039644698834 506.48593132309287057 506.43051224019058054 -9999 -9999 -9999 -9999 
-9999 -9999 -9999 -9999 -9999 -9999 -9999 -9999 506.48687933226256064 506.51853538685861622 506.53071950612229557 506.54909496506775213 506.55906001103738845 506.57035950724912254 506.57863060123617061 506.58965240045847622 506.59671925928586234 506.60736156641178241 506.61902772878539736 506.63442604218704446 506.61392993573116428 506.6046998760562019 506.58900484349578619 506.58243444609865946 506.57489085195231837 506.56879788371583118 506.54690338355590029 506.51850278302453034 506.49679632134916574 506.47095980879174704 506.45388391583941257 506.4066622016864585 -9999 -9999 -9999 -9999 
-9999 -9999 -9999 -9999 -9999 -9999 -9999 -9999 506.45934822084228699 506.48673390270397476 506.50146231165905419 506.51672082419901244 506.53158442193875999 506.54358079960377381 506.5544868858389691 506.5580668745363937 506.56607897757049841 506.58002860109650101 506.59072096484055692 506.60820644428378046 506.58762191668063224 506.57570480413841096 506.56218224189058219 506.55234756862029144 506.54790060345510483 506.5410702628372519 506.51829046739015894 506.49468338367194065 506.46957025817414433 506.44538559526478139 506.42660754318183081 506.3696435950121213 -9999 -9999 -9999 -9999 
-9999 -9999 -9999 -9999 -9999 -9999 -9999 -9999 506.42426566565023904 506.45591357629797358 506.48133159507136725 506.48914604336351886 506.50739770338822154 506.5172958861928123 506.5244408790784405 506.52943622551288172 506.53937828746478544 506.55104823890474108 506.5641409237302355 506.57981933737494273 506.56034397931807689 506.54468646778633456 506.53385140175674906 506.52747215515347534 506.52085797595032091 506.51057014671260958 506.4876593348226379 506.46324925184734411 506.44352263442198137 506.41452528386730592 506.39940493679574729 506.32932776298360977 -9999 -9999 -9999 -9999 
-9999 -9999 -9999 -9999 -9999 -9999 -9999 -9999 506.38958395619062003 506.45496862336818822 506.4452366812766968 506.46130337301667623 506.47458072301498078 506.49177902754826164 506.49327643328399517 506.49919054436094257 506.50965527576249769 506.52003533465057217 506.53087808338295872 506.54604730502273924 506.5300127714123164 506.51776674460649019 506.50928178929780188 506.49676655374787515 506.49120801199734387 506.47887926836790484 506.45578401800133861 506.43426090106009951 506.41499901098666214 506.38782188933811312 506.36004658597175876 506.32676488925091007 -9999 -9999 -9999 -9999 
-9999 -9999 -9999 -9999 -9999 -9999 -9999 -9999 506.35782356167123908 506.39610845259215921 506.41263120163523581 506.42809807537480538 506.45194028531329877 506.45721470179336166 506.46654986299000711 506.4685002953386288 506.47711641352543666 506.48968546700660909 506.49850532184444774 506.51526739781223796 506.50058545047954794 506.49288696265261933 506.48506340980861751 506.46886655610609296 506.46266880125585885 506.44867034208550649 506.42808223351829611 506.41367189291958084 506.38346569488948035 506.36012326068515677 506.33852292785542204 506.30886287790639244 -9999 -9999 -9999 -9999 
-9999 -9999 -9999 -9999 -9999 -9999 -9999 -9999 506.33289498057024502 506.37278705328435535 506.39102238776632703 506.40237626368758583 506.42285464098029024 506.43024643665438589 506.43673566485864512 506.43932796763897386 506.45105183872396992 506.46203011239890657 506.47097018451540862 506.48830889403097899 506.47576267429320751 506.45999629429610422 506.45219389943417809 506.44028172143038091 506.43228066736435267 506.4177321746106486 506.40185105117859621 506.38351392212030078 506.36084023961092271 506.33329360463920921 506.30502058250277742 506.28289367728757497 -9999 -9999 -9999 -9999 
-9999 -9999 -9999 -9999 -9999 -9999 -9999 -9999 506.30916434760689526 506.3372568462617096 506.35436487659154636 506.37999880867732827 506.39666321996111265 506.40425234271515365 506.40816172083242463 506.4138018130821024 506.4217714828565704 506.42980815254657045 506.44083713942478653 506.45846065986927442 506.445784546030211 506.43008089880652278 506.42044536221010276 506.40635474339882194 506.40143223800203032 506.39247272135196454 506.3734409365748661 506.35531187006341725 506.32638137511469267 506.30191993118467053 506.27124166221295809 506.23638531589261902 -9999 -9999 -9999 -9999 
-9999 -9999 -9999 -9999 -9999 -9999 -9999 -9999 506.28610467068949674 506.32199475196273397 506.33314394639427292 506.342412023966574 506.36047173732453075 506.37067618050207329 506.38023376377816476 506.3825378520856475 506.38883021321964861 506.39941105963140444 506.41243967761477052 506.42717357855207183 506.4196269001673727 506.40220361724209397 506.39092889039045531 506.37980119742843499 506.37298684476991184 506.36609029457457609 506.34871648145411882 506.32279237541052908 506.3129636038878516 506.27197511329052304 506.24690990059514206 506.20202668478890473 -9999 -9999 -9999 -9999 
-9999 -9999 -9999 -9999 -9999 -9999 -9999 -9999 506.25540636902445613 506.28295672862248011 506.29097614678568107 506.31358986183676052 506.33000379117601142 506.3399539798597857 506.34942813358901503 506.34953286592792665 506.35879856076934402 506.37358740983881944 506.38424888294724724 506.39858395404462499 506.39022885853313483 506.37525103963912443 506.36795301083265031 506.35577184530615114 506.34545245457900364 506.33682909620466717 506.31781423162647116 506.29596902770418865 506.27833453903815553 506.24864434420203452 506.20866471490592176 506.18644881111816858 -9999 -9999 -9999 -9999 
-9999 -9999 -9999 -9999 -9999 -9999 -9999 -9999 506.21702339429344875 506.26533350975392977 506.25840911016388191 506.28116381071737351 506.29892261258737562 506.31048562667831447 506.31815068413538938 506.32288682920540168 506.3307644830041454 506.34282157120122747 506.35441282419066056 506.36865309250060818 506.36030625098715063 506.34656466223464122 506.33724404140485831 506.32403407168447984 506.3163835268743469 506.30848978613204281 506.28907754474909098 506.26741410014795974 506.24676097745975767 506.2138204063988951 506.18821901545231867 506.15100394469334333 -9999 -9999 -9999 -9999 
-9999 -9999 -9999 -9999 -9999 -9999 -9999 -9999 506.18527155735989709 506.24300795631245364 506.2393931511981009 506.25295037691853395 506.26859753798271413 506.28300468682698465 506.2915442297690447 506.29428657912740164 506.30408323583094443 506.31426007932878974 506.3241549802274335 506.34048375935066133 506.33482702219185967 506.31881141203166408 506.31059039953379397 506.30057863002213026 506.28874566433768223 506.28119574479933362 506.2615872721460164 506.24004727442661533 506.21522542954875234 506.18751706492832909 506.16886651807203634 506.11813082077338777 -9999 -9999 -9999 -9999 
-9999 -9999 -9999 -9999 -9999 -9999 -9999 -9999 506.1601892095814037 506.21210980518105771 506.20455180347545365 506.22198570723691091 506.23968705256243084 506.25396337381022249 506.2612002808857028 506.26683907430452791 506.27307139878291764 506.28649505621649496 506.29673428899644705 506.30813373323292126 506.30307745110656015 506.29018190607797578 506.28480621132320039 506.27205231721063683 506.25985180000492392 506.24986188923293184 506.23360040692091388 506.20963964315035355 506.19327444355320722 506.16257198754504998 506.14264896360066359 506.1006507081650625 -9999 -9999 -9999 -9999 
-9999 -9999 -9999 -9999 -9999 -9999 -9999 -9999 506.15432610215037812 506.18131233671795144 506.17374140531853755 506.19746709511207428 506.21267989515450836 506.22397476528578864 506.23437174484780599 506.24054554743236167 506.24766618738561874 506.25953552211450415 506.26829605743438378 506.27923170956722743 506.27293713861394053 506.2604177260693632 506.24970057574722659 506.23933997807512242 506.23456053540519406 506.22105971015878367 506.20413720663100321 506.18496814231269809 506.1633426350574041 506.13118440448369029 506.10782621994212604 506.05357099102434404 -9999 -9999 -9999 -9999 
-9999 -9999 -9999 -9999 -9999 -9999 -9999 -9999 506.0918051015293031 506.15954483220326665 506.15794370834805704 506.16696844206973083 506.18735778847900519 506.19406746379070228 506.20725253688999601 506.21187973720543596 506.21852781116217557 506.23025805364812868 506.23953238042270186 506.25011980792686472 506.24829505581499234 506.23332678780826654 506.22285853689692203 506.20844561893807168 506.20517255187814953 506.19615632521038151 506.1765298762288694 506.15657269199266466 506.13725439315464882 506.10593399412869076 506.08506948867488973 506.04467152646355999 -9999 -9999 -9999 -9999 
-9999 -9999 -9999 -9999 -9999 -9999 -9999 -9999 506.06752703093542323 506.11325796562709911 506.10931438101385993 506.13411429606708225 506.15075809251356986 506.16512981167926455 506.17728600138042339 506.18414744970181118 506.19144876810560163 506.200610278275974 506.21223941375183131 506.22288713573902896 506.22033763673306339 506.20269287090485477 506.19568010471624575 506.18568023866578187 506.17528573447532381 506.16667868303255773 506.14939258507922659 506.13266157020495939 506.1131565027369561 506.07958313633321268 506.06230547323275459 506.02858797805492941 -9999 -9999 -9999 -9999 
-9999 -9999 -9999 -9999 -9999 -9999 -9999 -9999 506.04044668775605942 506.05959597246726389 506.08188690145897226 506.10600750317820484 506.11545119838990558 506.13283889858263365 506.14296789465095117 506.15672688548244196 506.16206210188113346 506.16950276621702187 506.18341917492466564 506.19581297222617877 506.19473768044326789 506.17550958474402023 506.16816711813129359 506.15978587906431585 506.15027797778958529 506.13637313907281623 506.12047962555095637 506.10147140713792169 506.08050072213495696 506.05530616516699638 506.0256547991507432 505.9740664478480312 -9999 -9999 -9999 -9999 
-9999 -9999 -9999 -9999 -9999 -9999 -9999 -9999 506.04322171997961277 506.03524890963024063 506.06268902619865457 506.07306758794265988 506.08557872662032651 506.105155038903888 506.11339019401839323 506.12589982271077815 506.13277229370424948 506.14523620135656756 506.15417153573775977 506.16344634390139845 506.16603556661823404 506.1473706078890018 506.13721287244726454 506.12754659183298145 506.11733113423304076 506.10499181708036076 506.09117122739775141 506.07747350275235476 506.05010910652515577 506.02711047736687533 505.99569254600913837 505.96287135217352215 -9999 -9999 -9999 -9999 
-9999 -9999 -9999 -9999 -9999 -9999 -9999 -9999 505.97460758047299123 506.00523441325282192 506.04567038210967667 506.04468358635153891 506.06486026818026858 506.07514273740571298 506.08534725698871171 506.09821852532860476 506.10340298163811212 506.11468422786634846 506.12595419456937407 506.13665006724096429 506.13971782162298041 506.12229410376636451 506.11335251719896178 506.09726102840500062 506.08916635766252057 506.07786389147111095 506.06188852062706474 506.04146707989804099 506.02473593291017551 505.99847348391261903 505.98137529282797686 505.92828764010550913 -9999 -9999 -9999 -9999 
-9999 -9999 -9999 -9999 -9999 -9999 -9999 -9999 505.9478722218697726 505.96461580139032321 506.01001949655830003 506.01927373277857214 506.0294909873269944 506.0456841125916867 506.05704814062880814 506.06651296571391185 506.07515994137156667 506.08366908783909821 506.09732329133385065 506.10933629323886862 506.11378356089772979 506.09346120647091993 506.07575947658995119 506.06759873999385491 506.0595425593922414 506.04719151284740519 506.03296674616143491 506.01238551398489562 505.99189279287674026 505.96820547863279671 505.94149389463416355 505.91484797593642497 -9999 -9999 -9999 -9999 
-9999 -9999 -9999 -9999 -9999 -9999 -9999 -9999 -9999 505.93189188813943247 505.96920536126202705 505.984634678952375 506.00027080665040558 506.01587216754990095 506.02563168823706974 506.03733599399544119 506.04363986976272827 506.05334385485787152 506.06494261701379855 506.07800382224064606 506.08809377078796388 506.06528627700760126 506.05399062771203944 506.03873874544711953 506.02859695279562402 506.02162032568588756 506.00726591357914685 505.98700196133120244 505.97169209013759428 505.93959575442943333 505.91178980219393679 505.89444100021597706 -9999 -9999 -9999 -9999 
-9999 -9999 -9999 -9999 -9999 -9999 -9999 -9999 -9999 505.90169590156119739 505.92187026385130366 505.96397866454128689 505.97357481666216472 505.98658815921504583 505.99877761631807971 506.00785733768481123 506.01478041228904203 506.02649636865317007 506.03834124156315966 506.04963568439904975 506.0627398561163659 506.03991024824551914 506.02596994900642358 506.01538215908402663 506.00413364650273707 505.99609671739841588 505.98377966886056356 505.95661151325231231 505.9387601836677959 505.90660686873133045 505.88579023622099839 505.85771840062056981 -9999 -9999 -9999 -9999 
-9999 -9999 -9999 -9999 -9999 -9999 -9999 -9999 -9999 505.8622415158140484 505.92450994914673856 505.92513926263308122 505.94022811436678921 505.95234274986916034 505.96783552739327661 505.97761605560640419 505.9864470608546867 505.99874214673576489 506.01017186697771422 506.02024414867815949 506.03180592093559653 506.00945084708138211 505.99573278627087802 505.98557802564585018 505.97446900920397184 505.96724158938394567 505.94788731865025966 505.93085143340499599 505.90943998960182171 505.88381079136729568 505.84924043452735987 505.84980823454810661 -9999 -9999 -9999 -9999 
-9999 -9999 -9999 -9999 -9999 -9999 -9999 -9999 -9999 505.83914834423967477 505.86814095023868276 505.89430972075382442 505.90931760972972597 505.92770888236003657 505.94124968548135257 505.94652601168388628 505.95733352445790842 505.96960650198349185 505.98067097113528234 505.98879749654184934 506.00323528387639271 505.97827579398608577 505.9663926408069301 505.95518546044536379 505.94788394964268718 505.93833561199681981 505.92122376328165956 505.90479174491730419 505.88382946280853503 505.85486379298527027 505.82941187486750323 505.82014057017255482 -9999 -9999 -9999 -9999 
-9999 -9999 -9999 -9999 -9999 -9999 -9999 -9999 -9999 505.80041975389843856 505.83494533675815319 505.85988729310810186 505.87989655163244151 505.90149889431836527 505.90774339477815147 505.91875431190379686 505.92561817685941605 505.93684018349813414 505.94720923639789589 505.96152598424384905 505.9792921689099785 505.9530156597804762 505.93793964078798808 505.92831264778288869 505.91867137734107018 505.90980620385658995 505.89346197426959861 505.87619400955628635 505.85644441732523546 505.82591060052351395 505.79477353263968098 505.81070231023920769 -9999 -9999 -9999 -9999 
-9999 -9999 -9999 -9999 -9999 -9999 -9999 -9999 -9999 505.77585170575912343 505.80275801317412743 505.8325712984093343 505.84949154622665901 505.86799014655662177 505.87904005195520085 505.89089921579926568 505.89899768152838533 505.90590508392654101 505.91936834029667125 505.93415966691770791 505.94319603380478156 505.92341424991258236 505.91203461691213761 505.9042732897495398 505.89133495096757542 505.88248934052489858 505.86737488119592854 505.84853757165001298 505.82692871165630777 505.80234553691803967 505.75737370010301674 505.77135536835095309 -9999 -9999 -9999 -9999 
-9999 -9999 -9999 -9999 -9999 -9999 -9999 -9999 -9999 505.7449825990038903 505.78858656562124452 505.81443160088252853 505.81678907897281761 505.83425973109171991 505.84789711167292126 505.86506273464715377 505.87294343944881803 505.8837528957275822 505.89300865158230636 505.90681893826860005 505.91730269673189468 505.89661855744685681 505.88754182150199767 505.87147056897566699 505.8639456227662663 505.85398148866772772 505.8371881383221762 505.81838694674058843 505.79690337884392193 505.76358011222225741 505.72495489636150978 505.74070871385777082 -9999 -9999 -9999 -9999 
-9999 -9999 -9999 -9999 -9999 -9999 -9999 -9999 -9999 505.71330852767954411 505.75401015398529125 505.77458274648637371 505.78845108542793696 505.80890015736190435 505.81877456531668713 505.83525891754641179 505.84422870455296106 505.85437170490075687 505.86473522514614842 505.87554598767349034 505.8876864180102757 505.86761361588747832 505.86037503369300339 505.84855719302953503 505.83596688399563845 505.82346657597770445 505.80524844821394481 505.78679977469141704 505.76239177054611673 505.73729891452262564 505.7032593232149793 505.71191506070624655 -9999 -9999 -9999 -9999 
-9999 -9999 -9999 -9999 -9999 -9999 -9999 -9999 -9999 505.68343594824307274 505.71439747731432135 505.74895515612223562 505.75919548746037435 505.77577750692245218 505.78934015098144528 505.79764784394461685 505.81457060549195148 505.82592911229642141 505.83061654599561052 505.84541115087267826 505.85902171405081162 505.84098525636261456 505.83002922560314119 505.82178440102575223 505.80973159674033468 505.79696751036021851 505.77661402488604381 505.76024966792891746 505.73703533817899824 505.71017185443832886 505.67771844882622645 505.69648560014917393 -9999 -9999 -9999 -9999 
-9999 -9999 -9999 -9999 -9999 -9999 -9999 -9999 -9999 505.66073917615335631 505.71287655868042066 505.73121451036632834 505.73189895520386017 505.75099833170656893 505.76158997804287765 505.77049941658691523 505.78542557898805399 505.79407333644115852 505.80370441060972553 505.81577985459250613 505.82915886590183163 505.81205271711900195 505.80300550327149267 505.79346531388875974 505.78074318473193216 505.764073377980651 505.75126277503812844 505.73359709923329319 505.71664160309416047 505.67399290881206753 505.63879040212776772 505.63624599074353227 -9999 -9999 -9999 -9999 
-9999 -9999 -9999 -9999 -9999 -9999 -9999 -9999 -9999 505.62352684844199757 505.67896333556581112 505.67825389128478264 505.70533801997027012 505.72704834454157208 505.73219596812327836 505.74004700317465222 505.75769641162651169 505.76282777868595986 505.77533940112908795 505.78640551003894643 505.80005328567699507 505.78267275494522437 505.77576407272431425 505.76398279354827991 505.75021103214470486 505.73580008514989004 505.7213203237835728 505.70528423147140984 505.68319513080678007 505.6544882823422995 505.61180861935110897 505.62902355850610547 -9999 -9999 -9999 -9999 
-9999 -9999 -9999 -9999 -9999 -9999 -9999 -9999 -9999 505.58412737591623909 505.61626497469774222 505.67242337644864847 505.67671063230835671 505.69848237984354 505.70626257480120103 505.71471205046969999 505.72632346292130023 505.734569145167427 505.74640770936167655 505.75456995741836863 505.76591866210998205 505.75314678607560381 505.74536520590351074 505.73500539630242656 505.72333060651914138 505.70741980221134781 505.69172105494004654 505.67685894132677049 505.65190397238222886 505.62750205165804118 505.58875586158274018 505.57286429040124176 -9999 -9999 -9999 -9999 
-9999 -9999 -9999 -9999 -9999 -9999 -9999 -9999 -9999 505.56946447442027193 505.61005462257537602 505.64817993452038536 505.6464485429216893 505.6702249512093772 505.67718623650074505 505.68904938996507781 505.69863614076609792 505.70675943072336622 505.71737753536979199 505.72458095413992396 505.73780801915984284 505.72566898088689413 505.7162979794947546 505.70516172914756226 505.69556468452208264 505.68140861157564814 505.66125095413423196 505.64964014958547978 505.63019148697122773 505.60205860361025998 505.56063784145698037 505.54485069327478186 -9999 -9999 -9999 -9999 
-9999 -9999 -9999 -9999 -9999 -9999 -9999 -9999 -9999 505.53817759470160809 505.57538855374548348 505.61857894048216622 505.62313395902634738 505.63523552846595521 505.64608106860168846 505.65262736083769823 505.66719993736876404 505.67729573974355617 505.6871754539668018 505.69675164302134363 505.70793515026417708 505.69885974712258303 505.68884169026267728 505.68015369596878372 505.66821500159937841 505.65426225992371201 505.63439373906771834 505.6187014933974524 505.60284971266401044 505.58807598405161343 505.54517353558213699 505.53211591084027532 -9999 -9999 -9999 -9999 
-9999 -9999 -9999 -9999 -9999 -9999 -9999 -9999 -9999 505.5203033603903009 505.55521693906990777 505.56961833119288485 505.58856474794038149 505.60685798542942848 505.61470584291021169 505.62448863617299821 505.63595962408192008 505.64796974103961702 505.65848863536666613 505.66722980693623413 505.67975780972858502 505.6696248970462193 505.65862948335188776 505.65382766984203045 505.64161769200404706 505.62847211905670974 505.61741771243958965 505.58874549022630163 505.57528875162569193 505.55418057772749307 505.53072812940229142 505.51331273951780076 -9999 -9999 -9999 -9999 
-9999 -9999 -9999 -9999 -9999 -9999 -9999 -9999 -9999 505.49987328616498417 505.52570851893642612 505.54824552340153332 505.55969408841525592 505.57954003782123209 505.58432175144832854 505.59353489699481088 505.60824682784152628 505.6183659617364583 505.62837101637973092 505.64000687893246777 505.65258412579322567 505.64357049641273534 505.62963806237820563 505.62076198729619136 505.61679206489583294 505.6026962019807911 505.58646465229924161 505.56314716915738927 505.5427668487458277 505.53335702925471651 505.51487263020624141 505.46064622968702906 -9999 -9999 -9999 -9999 
-9999 -9999 -9999 -9999 -9999 -9999 -9999 -9999 -9999 505.46396259734410705 505.4963581966557058 505.50854194075111536 505.52901801592804532 505.54422006180851668 505.55739093299627029 505.5671952336092545 505.5806693302305348 505.59677128835147641 505.59916066220660014 505.6125308234682052 505.62332576289037434 505.61369454629772235 505.60096156745890994 505.59472609660269882 505.58362933143354212 505.57483959632395454 505.56179927309466393 505.53614996944264703 505.51073101724011849 505.48592269985147141 505.47275273130668438 505.44790284329229735 -9999 -9999 -9999 -9999 
-9999 -9999 -9999 -9999 -9999 -9999 -9999 -9999 -9999 505.43400523442369376 505.49326306915662599 505.48200812952973138 505.49719155267587212 505.51877554919826707 505.53317420312833974 505.53803569810077079 505.55180962912538689 505.56517446568614105 505.57715837906647494 505.58349463989804917 505.59562823897499584 505.58647118827951772 505.57125576203156925 505.56686225558610204 505.5530889107763528 505.53976260200579418 505.53018737832996976 505.50747750977467376 505.48180058801881387 505.4640106171628986 505.44613337277132814 505.41508228866092622 -9999 -9999 -9999 -9999 
-9999 -9999 -9999 -9999 -9999 -9999 -9999 -9999 -9999 505.40395193773264282 505.41950808821593455 505.4519835061657318 505.46823398445229714 505.48743087954147768 505.49924000412693204 505.50791988145272171 505.52531732418577803 505.53529430396173439 505.54370957297976474 505.5519836063360799 505.56856256933917848 505.56043703875184292 505.54532694711929253 505.53771537494748145 505.52671921724834192 505.51545323570468327 505.50371694786184662 505.48130879511779767 505.44842443521764608 505.43252337364020832 505.41127533216950951 505.39275882708545851 -9999 -9999 -9999 -9999 
-9999 -9999 -9999 -9999 -9999 -9999 -9999 -9999 -9999 505.37151523659997565 505.38986868781216799 505.41818534181243194 505.44797771251404583 505.45474305340201226 505.47029996118095596 505.47878944035755922 505.49311360879738686 505.50561290905096712 505.50804302624788988 505.52581736265369727 505.53818183013385124 505.53767402605984671 505.52168073295320028 505.5092966536858512 505.50001075770751413 505.48820814608109231 505.47849650576432623 505.44933975079010224 505.42425560337875368 505.40583650060398213 505.3764666561166905 505.36045116734186422 -9999 -9999 -9999 -9999 
-9999 -9999 -9999 -9999 -9999 -9999 -9999 -9999 -9999 505.34025563843528062 505.37470433576237383 505.40223990780964414 505.42160302990504306 505.43403053448787432 505.44419119476663127 505.45132358670002759 505.46588911660398935 505.47462171677057086 505.48431843600820912 505.49683005962344851 505.51148238911372346 505.50879794993039695 505.49254796834804893 505.48087667869174311 505.47230184217141868 505.4618366890094876 505.44751793178431853 505.42332551124445672 505.40145935475038641 505.37610495527655985 505.34651157155775536 505.3206542822430265 -9999 -9999 -9999 -9999 
-9999 -9999 -9999 -9999 -9999 -9999 -9999 -9999 -9999 505.31240111473186971 505.33006639197645882 505.37451827890015466 505.38325152689054676 505.40328888205999647 505.41741960951583224 505.42452523867825676 505.43726128851056956 505.44826490594800816 505.45729497269070407 505.46872868247470478 505.48209515839045025 505.47960847031811227 505.46285176808902406 505.45608381481093829 505.44354015656443835 505.43054841121528398 505.41284506155960798 505.39932447492691381 505.37124323709497276 505.35364470360548239 505.33158873164404667 505.29965524719563064 -9999 -9999 -9999 -9999 
-9999 -9999 -9999 -9999 -9999 -9999 -9999 -9999 -9999 505.28012774142911212 505.30175034478560292 505.33893916515921774 505.37007696658059785 505.37517114783673833 505.38564788994153787 505.39724159437776052 505.40922743905656489 505.41753298423162732 505.42612169995288696 505.43775321708005777 505.45262992611861819 505.44989723700143713 505.43403267259952827 505.4233415149845996 505.41084409799475452 505.40332589564962973 505.38773608183436181 505.36922688880486021 505.34506133016441254 505.32145865851771305 505.29743668088639197 505.27912606360212067 -9999 -9999 -9999 -9999 
-9999 -9999 -9999 -9999 -9999 -9999 -9999 -9999 -9999 505.24978005579771434 505.29106727618557215 505.30226487571479765 505.32537626704004197 505.33870579939787149 505.35506132350877806 505.3674026198460183 505.37655466544839555 505.38495505320315715 505.39307836977178567 505.40878938126218145 505.4243300717774332 505.42193933653442173 505.40554213108146087 505.39690843811359855 505.383159395967823 505.37413182310251614 505.35962739894381457 505.34076114498520838 505.31782744455244938 505.30635845100977122 505.26498089356664423 505.24509808582752157 -9999 -9999 -9999 -9999 
-9999 -9999 -9999 -9999 -9999 -9999 -9999 -9999 -9999 505.22494531471369328 505.24117512656977169 505.28232422274521696 505.29817208119806082 505.31113455924315758 505.32429444572761668 505.33730072558694246 505.35002531122626124 505.35685975252869184 505.36517536559779273 505.37871183800081099 505.39446044608024522 505.39480663910137537 505.37705799871287127 505.36276931612371754 505.35442709639875147 505.34869114895582243 505.3338270676622983 505.32007926376138585 505.29226492231686052 505.27456922604500278 505.24139795481227111 505.22221666150227293 -9999 -9999 -9999 -9999 
-9999 -9999 -9999 -9999 -9999 -9999 -9999 -9999 -9999 505.19130586165920249 505.24035218781688172 505.26560092592893625 505.2741168048175382 505.28966834592830537 505.30066628438390808 505.3072620256667733 505.32034131587181491 505.32756563717668996 505.33799686268855567 505.35084837669955959 505.366682790691641 505.36526022005369896 505.34808964145918253 505.34012897994045943 505.32508220630529649 505.32137774197809676 505.30773882913990747 505.28530385539625058 505.26004204742946513 505.24318794442700664 505.21278918849424144 505.1889397905564465 -9999 -9999 -9999 -9999 
-9999 -9999 -9999 -9999 -9999 -9999 -9999 -9999 -9999 505.15789395779955839 505.21708285207506606 505.2202952481536613 505.24572263419429419 505.25480367510522228 505.27031084953461004 505.28043110688759043 505.29063135851481547 505.29717113628322522 505.30577764971212673 505.32239210454304157 505.33706856632278459 505.33551727200085679 505.31870417371516169 505.31086914022546352 505.29355425689493586 505.29053339976763937 505.27926597395043018 505.25839362243806363 505.22889025235474492 505.21099545219703941 505.18571879544646208 505.15151320453276185 -9999 -9999 -9999 -9999 
-9999 -9999 -9999 -9999 -9999 -9999 -9999 -9999 -9999 505.13431987078848806 505.17160743932373634 505.18935982955429154 505.21057204918446359 505.2263179908381403 505.24276933484867413 505.25339073282066238 505.26654152197789927 505.27218370782594548 505.28062881323245392 505.29423115023581659 505.30746690850770619 505.30677713465155421 505.29516287336497271 505.28151399502075947 505.26928708778183363 505.26155595984153024 505.24950568053759525 505.23309550640777843 505.20346350644047106 505.1795798253870089 505.15498029076144348 505.13365361065245907 -9999 -9999 -9999 -9999 
-9999 -9999 -9999 -9999 -9999 -9999 -9999 -9999 -9999 505.10790283210508278 505.13946048689740564 505.16335929897780943 505.19812992615550229 505.20391744095127251 505.21286500206412029 505.22128093230548984 505.23490173432634265 505.24465451770606705 505.25176041136052163 505.26443460212880154 505.27837851349909215 505.28226031336521373 505.26257870538779571 505.25055487415522748 505.24144188803370525 505.23620581872091861 505.22073826286890608 505.20201450092355344 505.17672079230396776 505.15790315384060705 505.13438430979977056 505.10763830717291967 -9999 -9999 -9999 -9999 
-9999 -9999 -9999 -9999 -9999 -9999 -9999 -9999 -9999 505.08481401776015218 505.10764898526053912 505.14132045271941251 505.16190978252745936 505.17574721281118855 505.183077089290407 505.19296112939468912 505.2031579857011252 505.2125025835276233 505.22208149027125046 505.23600948399752042 505.2503232187376625 505.25503827020980907 505.23065643913224676 505.22035035672735148 505.20749878330963156 505.20415989023507564 505.1937157144902244 505.17473145261345735 505.15579806463466639 505.13104887321969727 505.10782801154618937 505.07561332974739798 -9999 -9999 -9999 -9999 
-9999 -9999 -9999 -9999 -9999 -9999 -9999 -9999 -9999 505.06252942138098661 505.18583507913041331 505.11193967086524026 505.13473296469715024 505.13962619670394361 505.15811468781492977 505.16516090952575269 505.17665235931633561 505.18872089651210899 505.19536750284720483 505.21014899419350286 505.22253427351466826 505.22555738425114669 505.20416618736612691 505.19237115907878888 505.18286389420813975 505.17553802170863264 505.16390236325685237 505.14975169858593063 505.12689012710563929 505.10422622842952478 505.08332102361663374 505.05896649869544035 -9999 -9999 -9999 -9999 
-9999 -9999 -9999 -9999 -9999 -9999 -9999 -9999 -9999 505.02190886006542314 505.04911434964145656 505.0807227725138091 505.10366773688861031 505.11882403676401054 505.12647503576943109 505.13752224147174275 505.14794850134069293 505.15855054707066074 505.16653190605984491 505.18228505363464365 505.19318624615425506 505.20140157228462385 505.18071845817325993 505.16659011648175692 505.15466974121869725 505.14742883123557249 505.13644289038251145 505.12195133949023784 505.10141589019070807 505.08169268814913266 505.0534735521090397 505.02876569911256865 504.95203778464559718 -9999 -9999 -9999 
-9999 -9999 -9999 -9999 -9999 -9999 -9999 -9999 -9999 504.98815628996709393 505.02098221234149378 505.04991414132422278 505.08601787615594958 505.08725117522021719 505.09993391990667533 505.10963486438868131 505.12390869644690383 505.13038417260315782 505.14176864564211655 505.1523711933911045 505.16305371215895548 505.17353650707616453 505.15416095426934362 505.14307925904108743 505.12454048485926705 505.11744333802118945 505.10804912944297485 505.09315962137566203 505.07034840739356696 505.04635247088810956 505.02009103098993137 505.0036225214996648 504.94770214020735466 -9999 -9999 -9999 
-9999 -9999 -9999 -9999 -9999 -9999 -9999 -9999 -9999 -9999 505.02715937991945339 505.02108462032595071 505.04960372558554127 505.05888820451758647 505.08211401470174451 505.08469363662089791 505.09444052097410349 505.10185471427638504 505.11506020180127052 505.12504774947581154 505.13626876323758097 505.14271163239129692 505.12429482619484133 505.10775620710955991 505.0974368891191375 505.09137975175019619 505.07618158377783857 505.06456765691012833 505.03975400263874462 505.01400719740644263 504.99320865246858148 504.97540888780952173 504.94288598618521746 -9999 -9999 -9999 
-9999 -9999 -9999 -9999 -9999 -9999 -9999 -9999 -9999 -9999 504.99745763293390155 504.99106290506114192 505.0099809374146389 505.02970195108241569 505.0450415548524461 505.05669492413591115 505.06600536687909653 505.0721384159123204 505.08616704386275842 505.09414232213197238 505.1086673877102271 505.11476813881608905 505.0939131822756849 505.08264591605637861 505.07296316684994508 505.06479045943177653 505.05169147709199251 505.03852254940602506 505.0142295734760296 504.99414059935759269 504.9666546497240347 504.94453156586524756 504.88851580262013385 -9999 -9999 -9999 
-9999 -9999 -9999 -9999 -9999 -9999 -9999 -9999 -9999 -9999 504.95194244599463218 504.97758315524504269 504.99057687581318987 505.00602785147123086 505.0152214271550406 505.02611174025702212 505.03607693222647868 505.04312557097364333 505.0552538710759336 505.067101030242668 505.07907602035885475 505.09063891040983663 505.07186694432454033 505.05645993432972318 505.0439361384728727 505.03890205008053726 505.02348577823568121 505.00610062750030238 504.98547048542695848 504.9670432042295829 504.9400015446669272 504.91382776178653558 504.85111879724155415 -9999 -9999 -9999 
-9999 -9999 -9999 -9999 -9999 -9999 -9999 -9999 -9999 -9999 504.90629819094380082 504.93717957133816299 504.98147337480577335 504.97481560378503218 504.99195426925052743 505.00236586439751818 505.00944893216433229 505.01837428908652328 505.02784998309743969 505.03818730939082116 505.04764731318789472 505.05800769349480106 505.04096674912443632 505.02826615627043338 505.01411024555176255 505.00487869051931966 504.99468182954319673 504.98111922415461095 504.9543756974476878 504.93731302686222762 504.91772744920871219 504.88829912630853869 504.81052017308820723 -9999 -9999 -9999 
-9999 -9999 -9999 -9999 -9999 -9999 -9999 -9999 -9999 -9999 504.86452644106998378 504.92455502392158451 504.9248726666749576 504.94801365859257203 504.96136844948404132 504.97129683879330742 504.98083207511984938 504.98976958767826773 504.99999767925311289 505.0098201323364151 505.02164959570029623 505.03120747078185104 505.01179580350083143 505.00046615526957794 504.98619208210004672 504.97715962520072708 504.96220781772348118 504.94872041307678501 504.9272281550219077 504.90947480398705238 504.89135985449519239 504.86045727873522537 504.81940504117221735 -9999 -9999 -9999 
-9999 -9999 -9999 -9999 -9999 -9999 -9999 -9999 -9999 -9999 504.84828381293851862 504.86245375458156559 504.89143397219612552 504.91661302654983956 504.93203783761816794 504.93477131700643668 504.95218678813444058 504.96122899358260838 504.97365854273539298 504.98262447708412992 504.99453499660165789 505.00472240216942055 504.98286528110861582 504.97003482248857154 504.95899424911038977 504.95098333716106254 504.93808753166007364 504.92448836803862378 504.89964425787763957 504.8880581180139302 504.87203582531810753 504.83730811187257359 504.81089952439265289 -9999 -9999 -9999 
-9999 -9999 -9999 -9999 -9999 -9999 -9999 -9999 -9999 -9999 504.87343305897064738 504.84100615643711762 504.88207495114130552 504.89017785657364357 504.90383689455961758 504.91717182842296552 504.92272140057309571 504.93134168149970264 504.94420485841237678 504.95432630983162881 504.96557188418222495 504.97927894510121405 504.95606642192689151 504.94098937786856141 504.92710167625881468 504.92164275887694203 504.91244381257160967 504.89906358773055217 504.87165303633332769 504.86189108568743222 504.83102206832069214 504.80480206922186426 504.76440626785688437 -9999 -9999 -9999 
-9999 -9999 -9999 -9999 -9999 -9999 -9999 -9999 -9999 -9999 504.80198353420428248 504.80971231699754753 504.84998853897718618 504.86992915282951344 504.87349727827790957 504.89000187826053434 504.89555377031877015 504.90223396543393619 504.91476407406548788 504.92361595308500455 504.9354342140333074 504.95344705093395987 504.92969944207436583 504.91772972261389896 504.90284001755958343 504.89754942232070789 504.88710189107661108 504.87271970407562094 504.84634108479741599 504.83020239866488055 504.80043240562855544 504.7859896762439007 504.75448861029036607 -9999 -9999 -9999 
-9999 -9999 -9999 -9999 -9999 -9999 -9999 -9999 -9999 -9999 504.75608620807929583 504.77702614284851279 504.81043726658060677 504.83531989716090038 504.84955720995765205 504.86326245216480402 504.86552615757983631 504.87593537160614687 504.88742867149227322 504.89581425176783114 504.90783486859635332 504.92488164833093833 504.90617775540914636 504.88698894276592455 504.87701638462226583 504.87404908177370544 504.86058189349103031 504.84520266174507697 504.81539534840868555 504.79916998141999329 504.77343970985015176 504.75165761419890487 504.71024132201017665 -9999 -9999 -9999 
-9999 -9999 -9999 -9999 -9999 -9999 -9999 -9999 -9999 -9999 504.73571886397667186 504.76577482498151994 504.78623891429361947 504.80665394167192517 504.82365561686634692 504.83357426542977464 504.83704250527142676 504.84513774863279423 504.85938129700201671 504.86833182732107161 504.87872037756619648 504.89708697536548243 504.87312015343809435 504.8591126363511421 504.8507928098146067 504.84446928615250272 504.82754241121796213 504.81498127751581251 504.7883008451792648 504.762055038703636 504.74060075112555523 504.71825843017944635 504.6767489935138542 -9999 -9999 -9999 
-9999 -9999 -9999 -9999 -9999 -9999 -9999 -9999 -9999 -9999 504.71066682015981542 504.73725944379793873 504.77381007117548961 504.77334806582865667 504.79050433918860108 504.80391445127406769 504.8174285792797491 504.81949711073821163 504.82935597843862752 504.83861373052923227 504.85127120789803712 504.87110404598138302 504.84818084273820205 504.83190106218387427 504.82596212989062678 504.81450819201359081 504.80258590518610617 504.78785402150185746 504.76090186172717722 504.74013681287567579 504.71228009806156933 504.69892712276549673 504.70529460215919926 -9999 -9999 -9999 
-9999 -9999 -9999 -9999 -9999 -9999 -9999 -9999 -9999 -9999 504.6669552901211091 504.69753741315946627 504.73099004621116137 504.74410132432916498 504.76234230439217754 504.77648392992927029 504.78229870020589942 504.7875075415697097 504.80034875517884529 504.81061943358224653 504.82053587445278708 504.84195680326519096 504.82013342189554805 504.80343523616909351 504.79165763565464431 504.78767236926574924 504.77365529352209705 504.75365844763007317 504.73468205822308619 504.71272954692335588 504.68319386858206599 504.66624185440718975 504.63071961418535238 -9999 -9999 -9999 
-9999 -9999 -9999 -9999 -9999 -9999 -9999 -9999 -9999 -9999 504.6504236433078745 504.699340431389885 504.70584368097308925 504.71446540388069479 504.73435178119734701 504.74423331676553062 504.75137045531567992 504.76051408849571089 504.77239830835753764 504.78049467239310388 504.7915731526798595 504.81500772046513248 504.79325201981305327 504.77574892115939065 504.76544716464468365 504.75948814567095724 504.74391569093359067 504.72356718264444453 504.70519736430014746 504.68795063394435374 504.6600128443838571 504.63078654909764964 504.59152942122460672 -9999 -9999 -9999 
-9999 -9999 -9999 -9999 -9999 -9999 -9999 -9999 -9999 -9999 504.6279905593983699 504.64531679162678302 504.66961480886493518 504.68831175394961974 504.70509616543716902 504.71549124556361221 504.72746040917922983 504.73223929715356917 504.74403788884688993 504.7553932812843982 504.76555969154514969 504.78923966430170367 504.76464736938686428 504.74708976562988028 504.73470118303339405 504.72736524180589868 504.71548956204355818 504.69379333224543416 504.68009322977138709 504.65230033627403827 504.63175413711252304 504.60493529566798543 504.55510392824942301 -9999 -9999 -9999 
-9999 -9999 -9999 -9999 -9999 -9999 -9999 -9999 -9999 -9999 504.58301572259813383 504.61686382234108805 504.64426721722986713 504.66433554211886303 504.68541597477855021 504.69045000175691484 504.69912853935551311 504.70383427451935177 504.71716161234155607 504.72691366553516445 504.73598824910959593 504.76314645131043335 504.73819140767261615 504.71960966834944884 504.70693146753501424 504.69917590923813577 504.68389332817667992 504.67288170076511733 504.65068352558392917 504.63699644515838827 504.60205076740197683 504.57494239095717603 504.5188639072793535 -9999 -9999 -9999 
-9999 -9999 -9999 -9999 -9999 -9999 -9999 -9999 -9999 -9999 504.55659644634039296 504.59605337009946879 504.60992127732896506 504.63692775814575953 504.64656990647358725 504.66235308873058329 504.67284320419804544 504.67863192455513399 504.68977701499500199 504.69900482697244115 504.70681974499433409 504.73467380870340548 504.71211517767244459 504.693769609294975 504.67662871276036185 504.67275600049077866 504.65887192685545415 504.6440269251160089 504.61994346397716527 504.59620070923222102 504.56938567742588475 504.54522387542800743 504.48587687851244254 -9999 -9999 -9999 
-9999 -9999 -9999 -9999 -9999 -9999 -9999 -9999 -9999 -9999 504.52504267143575589 504.56462758368621735 504.60548173860763654 504.62063692165344264 504.61999924347401247 504.63591442665153863 504.64618397520996496 504.64942711835300315 504.66498849034263685 504.66988587719657744 504.67946132659261593 504.70810549535792688 504.68696871506602974 504.66647148569325054 504.65116618717030406 504.64356952597569261 504.63109105687453848 504.61187736817339555 504.59442869707891077 504.57139649447282181 504.54421224081659147 504.52615811736444584 504.47944113479451289 -9999 -9999 -9999 
-9999 -9999 -9999 -9999 -9999 -9999 -9999 -9999 -9999 -9999 504.49172274159695917 504.52983189828199784 504.56743503748907642 504.58541529189676567 504.59183936862791597 504.61564741929493039 504.6158927433910435 504.62126542226627635 504.63308847072681829 504.64228396835000012 504.65188069098843471 504.68305390950723677 504.65861529304680744 504.63904820775883309 504.62265243302590534 504.61490592507800557 504.60048817460210557 504.5870236130729154 504.56566218172349636 504.54364483093917215 504.52615211887774649 504.50350684449909977 504.45680200551572625 -9999 -9999 -9999 
-9999 -9999 -9999 -9999 -9999 -9999 -9999 -9999 -9999 -9999 504.48538705671199978 504.53188414448038657 504.52966499609487983 504.56230266018872044 504.56663792738754637 504.5757439512262863 504.58803496460654969 504.59653993902895763 504.60702320642002405 504.61525659890253337 504.62320536079823796 504.65414261103757099 504.63382075535275817 504.61281065337885821 504.59339947004986016 504.58669729745525956 504.57232880290479216 504.55722024939143466 504.5430909729965947 504.51906737927123459 504.49509113060969412 504.47101590934823889 504.42345401233643543 -9999 -9999 -9999 
-9999 -9999 -9999 -9999 -9999 -9999 -9999 -9999 -9999 -9999 504.45957257807009455 504.50978882028186945 504.50909580622703743 504.53594885191290587 504.53687234338292456 504.54281008441660106 504.55697333963951223 504.5685280429789259 504.57873897198300028 504.5850179455717921 504.59399811254337465 504.62553748051772118 504.60593575989906867 504.58331313170583599 504.5678586814863138 504.55835742870635841 504.54677281328253002 504.53581333838735645 504.51674347057752357 504.4924412987718938 504.47462617492550407 504.4451614978163434 504.39906892657683102 -9999 -9999 -9999 
-9999 -9999 -9999 -9999 -9999 -9999 -9999 -9999 -9999 -9999 504.41148298873412159 504.44261440155150922 504.46946294833082902 504.49472940244885422 504.50791785916368326 504.51875662657994326 504.52868198002983036 504.53630244398203786 504.54883526021342277 504.55678402487626499 504.56549403136494902 504.59574196820983616 504.57810139150700479 504.55407368340894436 504.53851779328402927 504.53058381824160961 504.52244324776671647 504.50895913667261539 504.4899516138710851 504.46533074056878831 504.44878371725212673 504.41961457739307662 504.37232156723609933 -9999 -9999 -9999 
-9999 -9999 -9999 -9999 -9999 -9999 -9999 -9999 -9999 -9999 504.38425377579488895 504.40480676873141874 504.43584334063376673 504.46859083858902295 504.47925397082332211 504.49379838230169071 504.50022424882672567 504.50954033761132678 504.51880053743104781 504.52863192806722736 504.54049284765295624 504.56810977806969731 504.55007909462528914 504.52232718152254165 504.51027063878854051 504.50043547979981895 504.49274260012515469 504.4769588795207369 504.46389083198363323 504.44174433448119999 504.42402525771154842 504.38423899148864393 504.34056316697245848 -9999 -9999 -9999 
-9999 -9999 -9999 -9999 -9999 -9999 -9999 -9999 -9999 -9999 504.35150195446840371 504.38196148470717617 504.42991707803196277 504.43731158285146421 504.45397554709774113 504.46352330539781406 504.47156217265649047 504.47640227900160426 504.48867112562544435 504.49891894308757401 504.51010347529097544 504.54002427770575423 504.52542901895753857 504.49696271476398124 504.48628331883048759 504.47408387792836493 504.46794205865131744 504.45222597348515592 504.43537259679101226 504.41441823208765527 504.38591553650036303 504.36530729435173726 504.32235042537649861 -9999 -9999 -9999 
-9999 -9999 -9999 -9999 -9999 -9999 -9999 -9999 -9999 -9999 504.33645038848425202 504.38850983747727241 504.39009452534889988 504.41146684537898182 504.42211970410073718 504.43861520636448859 504.43919499620454872 504.44775378902164675 504.45812287423575526 504.4682036729570882 504.48177595219920022 504.51163152383929855 504.50059437443098886 504.47124039759967218 504.45762894893300654 504.44870790081165524 504.4410254688277746 504.42606634939335208 504.40612119744349684 504.38752906698522338 504.35503555035290901 504.33923170278626458 504.28430832729168287 -9999 -9999 -9999 
-9999 -9999 -9999 -9999 -9999 -9999 -9999 -9999 -9999 -9999 504.30686780292552385 504.33941502464250561 504.37548917379228897 504.38674108489033188 504.39584812201536579 504.40855467843351789 504.41185896396427779 504.41922517869863896 504.43358173598039684 504.4428152409852828 504.45468922003306034 504.48211712966116238 504.4725169048593898 504.44277093058371975 504.42611493671955714 504.4157693328979235 504.4097263781677043 504.39780857500016964 504.38114319608212099 504.35343298284624325 504.32772166160941651 504.31265151380830503 504.24819432813364983 -9999 -9999 -9999 
-9999 -9999 -9999 -9999 -9999 -9999 -9999 -9999 -9999 -9999 504.28155584828419933 504.34822920722518802 504.35371671408091743 504.35368390966817742 504.37032487968423311 504.38195640282935983 504.38930485388368652 504.39254309351684924 504.406378546209055 504.41622374697561781 504.42844084194581455 504.45612780898750316 504.44613153762327329 504.41709665852062017 504.40482701529327869 504.39185686064035963 504.3849141010554149 504.36815269957418195 504.35334696373047336 504.32888175132291053 504.30739779504222042 504.27977424146615704 504.21940128032827033 -9999 -9999 -9999 
-9999 -9999 -9999 -9999 -9999 -9999 -9999 -9999 -9999 -9999 504.24340160467926353 504.2744281517606737 504.32351416931066979 504.33179438453453258 504.34328082827187245 504.35458113455592866 504.35915849045017012 504.3669743294697696 504.37758441476040616 504.38803587405357121 504.39959931021280681 504.42585292182968715 504.42052809168524163 504.39091996008346541 504.37502698046779415 504.36797869573274511 504.35888395150288943 504.34458960565621055 504.32903201600743159 504.30442531554314201 504.28219687474177135 504.25212967862216829 504.20826088322559144 -9999 -9999 -9999 
-9999 -9999 -9999 -9999 -9999 -9999 -9999 -9999 -9999 -9999 504.21921334778721757 504.2363456888307951 504.28058652571968423 504.29812774123541885 504.31364500621481284 504.32744445829416691 504.32733480393693526 504.33777261838787354 504.35200237607523377 504.36177178603963966 504.37206443360884123 504.39768433453258467 504.3910764634471775 504.35842595226137064 504.34682767422515326 504.34024866276871535 504.32982027240149137 504.31473349864097599 504.29844158843627611 504.27647858798377456 504.25188121035984068 504.22566266473080532 504.17700106674931249 -9999 -9999 -9999 
-9999 -9999 -9999 -9999 -9999 -9999 -9999 -9999 -9999 -9999 504.19371837102238487 504.22106918420269039 504.24761669195640934 504.26848827605101633 504.28527808430339974 504.2988973216110935 504.30491906878540931 504.31434539916500626 504.32619030114898351 504.33487949151975727 504.34626080271277715 504.37107573966682139 504.36659548331198266 504.3317903810375924 504.31702723844443881 504.3093030230498357 504.29842374373129132 504.28614727839203624 504.26977284443887584 504.24844583211768168 504.2226062367702184 504.19531167148210216 504.1616567157596478 -9999 -9999 -9999 
-9999 -9999 -9999 -9999 -9999 -9999 -9999 -9999 -9999 -9999 504.15527621846496231 504.23387297271830221 504.22656087766404198 504.25057924886488081 504.26013827299192371 504.27196296822785371 504.27777992574499422 504.28753228915121554 504.29580208159006816 504.30752742494297536 504.31711066438106172 504.34295541745370883 504.34336300467992942 504.30441024213456558 504.28587324237713574 504.27954466162429981 504.27138431000673791 504.25608618929027216 504.23941200579736233 504.22305963403113083 504.20763650640600417 504.16906679092733157 504.1258445741250398 -9999 -9999 -9999 
-9999 -9999 -9999 -9999 -9999 -9999 -9999 -9999 -9999 -9999 504.12249368176514963 504.1577055091149191 504.18943040298512415 504.20861683615487436 504.22969311744242304 504.24297854459098289 504.24734186322160667 504.25750608320277024 504.26700786838898694 504.2767757777472184 504.28670236083314649 504.31512949864929851 504.31691805326386202 504.27806847295943271 504.25844331726318615 504.24864063007356663 504.24040090312530538 504.22756642792512594 504.21199429619645116 504.19328194081566608 504.165698371926851 504.13913648977342064 504.11255892494682485 -9999 -9999 -9999 
-9999 -9999 -9999 -9999 -9999 -9999 -9999 -9999 -9999 -9999 504.11269830696892313 504.15333684204267684 504.16377860704045588 504.18240299784008585 504.20050967080140936 504.21565997910471424 504.22214931122636017 504.2319420031349182 504.24087112832614821 504.24981523758850699 504.26117207857583935 504.28685908229755341 504.28653871486733351 504.25117829232897293 504.23197487938807626 504.22197560142842576 504.21342381333727189 504.1978410034321314 504.18245487613575051 504.16674058554633575 504.13862685880343406 504.11565050070089455 504.09138743739384836 -9999 -9999 -9999 
-9999 -9999 -9999 -9999 -9999 -9999 -9999 -9999 -9999 -9999 504.08165396669602387 504.11083922366162824 504.13942404929429131 504.18673201401747974 504.172813070952202 504.18977458641165867 504.19924234329221235 504.20375027297114912 504.21201849814036677 504.22094639393691295 504.23543666595821833 504.25615713959842878 504.25663542692888086 504.22206531795234241 504.20500101984254115 504.19725861646452358 504.18710905104524045 504.17202169604234996 504.1599401031794514 504.14118326722382335 504.11232166516424513 504.09061336545516951 504.0724750921034456 -9999 -9999 -9999 
-9999 -9999 -9999 -9999 -9999 -9999 -9999 -9999 -9999 -9999 504.04225047387302538 504.08730061156273905 504.12019309361772912 504.13181085252375624 504.14431138031579849 504.16370478183591786 504.16782525149886851 504.17593040292211981 504.18220761982530576 504.19213626221790037 504.20590325285053268 504.22797557006902025 504.23142810873451936 504.19952902114710014 504.18127359589868774 504.17240259004643121 504.16181001771030878 504.15041128664188363 504.13126045813078235 504.11337620378122892 504.09971532060865229 504.06356224313242365 504.03539116491748473 -9999 -9999 -9999 
-9999 -9999 -9999 -9999 -9999 -9999 -9999 -9999 -9999 -9999 504.0252755422624773 504.05559103319257019 504.08837445486574325 504.10029143497695259 504.12043708678976373 504.13445860356819139 504.13952654750346483 504.145569640013548 504.15520916133840501 504.16346355978413385 504.17537003637846738 504.19612133725001968 504.20894575289418071 504.17380140151885826 504.1579150311832791 504.14692154944611957 504.13837400125152044 504.12335009710574241 504.10663884807416935 504.08656281332730487 504.06533474058284128 504.04112718917110669 504.01351346847008017 -9999 -9999 -9999 
-9999 -9999 -9999 -9999 -9999 -9999 -9999 -9999 -9999 -9999 503.99216207327458505 504.06061703756915904 504.05477811587206816 504.06269781471758051 504.08781881318503792 504.10412499987421597 504.11307422877905537 504.11949368690392248 504.12989939400580397 504.13872159466302492 504.15011719704199322 504.16807783358348161 504.18383665769596291 504.14545134980238572 504.12990186377822965 504.11829811267597279 504.10657452759380703 504.09472106084581355 504.07972355541920706 504.0611099445930563 504.04336676873305123 504.01471777950109754 503.99981366053071952 -9999 -9999 -9999 
-9999 -9999 -9999 -9999 -9999 -9999 -9999 -9999 -9999 -9999 503.9557519244199284 504.03948933709341418 504.02033397834441075 504.06067238918933526 504.06672778157474113 504.08247607497503395 504.08786256450815699 504.09580746608747859 504.10392919897668662 504.11274453918565541 504.12358188347667465 504.1402312992320276 504.15724936953881752 504.11644252709771763 504.10061059115020043 504.08782592474261719 504.08166813239438397 504.0659527787835259 504.05351322330710673 504.03801008615880619 504.02238117654400185 503.9892582070131084 503.96802917117753395 -9999 -9999 -9999 
-9999 -9999 -9999 -9999 -9999 -9999 -9999 -9999 -9999 -9999 -9999 503.94994524076753351 503.98547310563924384 504.02238839877270493 504.03750115393046372 504.05311054045876062 504.06124949807542635 504.06712319039337444 504.07703465902045536 504.08717395157918872 504.09442536560828785 504.1098009338357997 504.13418425438607073 504.09274304378874376 504.0759079722948286 504.0660429390584909 504.05796720909779651 504.045121866554382 504.03341273453344229 504.00911366006204162 503.98367829240214633 503.96340774510917981 503.91758721910537133 -9999 -9999 -9999 
-9999 -9999 -9999 -9999 -9999 -9999 -9999 -9999 -9999 -9999 -9999 503.95693332669071651 503.97719054502209701 503.98934241052285188 504.00936324970427904 504.02294055394270345 504.03199241959083565 504.03975819677765458 504.04978900362573313 504.05607971030394765 504.06655424514462993 504.08279710039801103 504.10208995154044942 504.06425411392700653 504.04974994904597452 504.03797492401315594 504.03163132085472853 504.01613463628683576 504.00197247514392984 503.98081369666431328 503.96176624144959533 503.93907886265463958 503.91392936941167591 -9999 -9999 -9999 
-9999 -9999 -9999 -9999 -9999 -9999 -9999 -9999 -9999 -9999 -9999 503.97024737788200355 503.95082895159004011 503.97180106898099439 503.98313008606538688 503.99822289601763714 504.00499423432586354 504.01191407450181714 504.02184280687981754 504.02943979658351736 504.04060360568087162 504.05480399456223495 504.07442168806380778 504.03647967954287878 504.01886333632108972 504.00783696475832585 504.00256863557240194 503.98914849867713883 503.97362275927150677 503.95449520764259432 503.93021214177866796 503.90695001227788907 503.86668973454010256 -9999 -9999 -9999 
-9999 -9999 -9999 -9999 -9999 -9999 -9999 -9999 -9999 -9999 -9999 503.88874771551257936 503.92305039103092668 503.92760512568531794 503.95756332478470085 503.97055198866644332 503.97709407062529863 503.98509993346522151 503.99445806136361625 504.00346754196164056 504.01394125083186282 504.02652228187758965 504.04871635634515314 504.01522427316854191 503.99840522782221797 503.98399470363142427 503.97473396295015391 503.96362204033619037 503.94814418477636764 503.92506573181668728 503.90630760236712149 503.87671666110844626 503.81828900720876163 -9999 -9999 -9999 
-9999 -9999 -9999 -9999 -9999 -9999 -9999 -9999 -9999 -9999 -9999 503.86036940789261962 503.89623506121455421 503.90457140600614139 503.92810552702678706 503.94184106544815904 503.95102198352708456 503.95728744671265531 503.96803248006926879 503.97740978338674722 503.98529717817098117 503.99859788944337424 504.02114733138193969 503.9839296831873412 503.97373319417818038 503.96081196499187627 503.94955149522138527 503.93637433595699804 503.92201562216968114 503.90274869815300463 503.87259775095429859 503.84632859037185426 503.8031165352277867 -9999 -9999 -9999 
-9999 -9999 -9999 -9999 -9999 -9999 -9999 -9999 -9999 -9999 -9999 503.86433020140890449 503.91938750440499462 503.88704789820019414 503.90086816544305748 503.91739705893633072 503.92629478921998043 503.9320885935538854 503.94074496218433978 503.94953309788604656 503.95748479958496091 503.96906760161624561 503.99693988715392834 503.95974714973783648 503.94572872608250691 503.93528797306134948 503.92309118626434383 503.90790402678396731 503.89527457748363304 503.88035549159599213 503.84666197320194669 503.82469106342807663 503.77670549724206239 -9999 -9999 -9999 
-9999 -9999 -9999 -9999 -9999 -9999 -9999 -9999 -9999 -9999 -9999 503.82413505982702873 503.83394600244190542 503.86866313383353599 503.8692618354934325 503.8951183594974168 503.89999905882808662 503.90658181740462851 503.91627357431883638 503.92330535189358898 503.93106949121556681 503.94177920439193485 503.96849659720629688 503.93246087452001802 503.91887533625919104 503.90164860117238277 503.89190077400837708 503.87881504681530487 503.86489627107727074 503.84282625924851118 503.82139776641434992 503.79629995160553335 503.73588122264521871 -9999 -9999 -9999 
-9999 -9999 -9999 -9999 -9999 -9999 -9999 -9999 -9999 -9999 -9999 503.76319328867947434 503.81125607797059729 503.82652960530310793 503.84713034208425597 503.86261483814240592 503.87104498152655196 503.87968191008513941 503.88761257153203132 503.89543833211558876 503.90417405646587667 503.91463720745309729 503.94023768201850544 503.91059461677474474 503.89242625673693965 503.87820530746654413 503.86764953402075662 503.85000706222081135 503.83679091259250526 503.81417249961128846 503.79373855362501899 503.76966028378666351 503.71699190370344468 -9999 -9999 -9999 
-9999 -9999 -9999 -9999 -9999 -9999 -9999 -9999 -9999 -9999 -9999 503.74047109092373375 503.80581487046111988 503.79804525508001234 503.81556859972306484 503.83579223636581901 503.84413976624455245 503.85147810308745875 503.85970265380530009 503.8682114067246971 503.87657561831412067 503.8887725768773862 503.91205168423914529 503.88371147832060615 503.86838972345788079 503.85388616452939914 503.84203508393198945 503.8207255985807933 503.80821163649284244 503.78888881437620739 503.77028143743740429 503.7440257912734296 503.68639151290318523 -9999 -9999 -9999 
-9999 -9999 -9999 -9999 -9999 -9999 -9999 -9999 -9999 -9999 -9999 503.71992538202187006 503.74638980164291979 503.80303063389698082 503.79349956865257809 503.81098177480413369 503.81444814401288568 503.82674140473068292 503.83698430858288475 503.84192826533620746 503.85037835768270043 503.86005874393254089 503.88224291476439021 503.85329364941566155 503.83888240189787666 503.82310546915527993 503.81199853184261883 503.79676269706510539 503.78151038494104341 503.76489153025795531 503.74215259084871832 503.71706072940071408 503.64372674875227176 -9999 -9999 -9999 
-9999 -9999 -9999 -9999 -9999 -9999 -9999 -9999 -9999 -9999 -9999 503.69230408867588267 503.72179602280510835 503.76042706130959914 503.76343779628808761 503.78626686713505478 503.79254215203621925 503.80089205349929671 503.80795822162582454 503.81453733885598467 503.82221721894455868 503.83530902035170129 503.85466280219907276 503.82395410361135646 503.80989145597590095 503.79129368888646923 503.7878673370200886 503.77256632059561525 503.75945395277278749 503.74007950398777211 503.7153276888890332 503.693346642132326 503.6491814873075441 -9999 -9999 -9999 
-9999 -9999 -9999 -9999 -9999 -9999 -9999 -9999 -9999 -9999 -9999 503.65601506325373293 503.69874627726034078 503.71522009969487499 503.73891342764551382 503.7586222926158257 503.76602897596137609 503.77303656274239074 503.77933732960059388 503.78732840094744461 503.79747673876573799 503.80950386841573163 503.82655226625774958 503.79750110252814466 503.78668356756099911 503.76390086340114749 503.75881725098457764 503.74627639843038196 503.72964431577747746 503.71124792765448319 503.69260790882384526 503.67552501203948623 503.63430394218858055 -9999 -9999 -9999 
-9999 -9999 -9999 -9999 -9999 -9999 -9999 -9999 -9999 -9999 -9999 503.63371043843875441 503.6703676594645458 503.69647151721886758 503.71284131852394239 503.73349057655156003 503.73830163659579284 503.74588824296165512 503.75122222947857153 503.76067432647124633 503.77114241702287245 503.78254615088593482 503.8048423251332224 503.77599520193325588 503.75892619688806917 503.74334005660756475 503.73295054963483608 503.71581400281849028 503.70638925050894841 503.6857414764287455 503.67246684193878536 503.6452354720133826 503.59680718998032489 -9999 -9999 -9999 
-9999 -9999 -9999 -9999 -9999 -9999 -9999 -9999 -9999 -9999 -9999 503.64641302024409697 503.64273846144789104 503.68747935456832465 503.69841467048928507 503.70342915932428696 503.71073488636142201 503.72016077913127674 503.7262811374353646 503.73269400448350552 503.74275494722019175 503.75567837917611769 503.77881808060101321 503.74813672702720169 503.73737257114942167 503.71691810997162975 503.70892744608681824 503.69102587862732889 503.67895595947396714 503.66369704385243722 503.64953083442361503 503.62694751010189975 503.57250686760744429 -9999 -9999 -9999 
-9999 -9999 -9999 -9999 -9999 -9999 -9999 -9999 -9999 -9999 -9999 503.58715756665168328 503.62508752237607723 503.64400898045471422 503.67068763438533097 503.67957673115853368 503.68635907184096823 503.6940180386181396 503.69862255439198861 503.70879225638782373 503.71711555304938202 503.72880893347098663 503.75444233790130966 503.71976424015741713 503.7100311918643456 503.69440680011479117 503.68405661716673194 503.67001894967086173 503.65171862438734252 503.6318964014649282 503.60783406483756153 503.58617227685437001 503.53160692628995321 -9999 -9999 -9999 
-9999 -9999 -9999 -9999 -9999 -9999 -9999 -9999 -9999 -9999 -9999 503.57691812727534852 503.60374741092402928 503.63080757839418311 503.63578427393815673 503.65189186623854312 503.66396087962897354 503.67045944839560434 503.67554883597171056 503.68331411199693548 503.69176013994552932 503.70312900838746373 503.73027168311682544 503.69789812867367118 503.6851290076478449 503.66539365413586893 503.65842413437502501 503.64225893697448555 503.62631076357990878 503.60655585359785391 503.58945708671956254 503.55977233248898983 503.5062491450798916 -9999 -9999 -9999 
-9999 -9999 -9999 -9999 -9999 -9999 -9999 -9999 -9999 -9999 -9999 503.55635604971138264 503.5682246094275456 503.59406100209145052 503.60820061910573031 503.62855333642352207 503.63689097008284534 503.64110634436940472 503.64476529201152744 503.65637297755540658 503.66392061475318087 503.67516144360524777 503.70088261100914906 503.67247819860580194 503.66016953296923475 503.64153025625466853 503.63326919386713598 503.61872953385841356 503.60099919983008476 503.57952548456904651 503.55631992669111696 503.54084185962290121 503.49379208809011743 -9999 -9999 -9999 
-9999 -9999 -9999 -9999 -9999 -9999 -9999 -9999 -9999 -9999 -9999 503.50713376189645487 503.57608410431203083 503.55953915292985812 503.59077757454178936 503.60016462267327597 503.60727231318020358 503.61324448140646837 503.61617062681364132 503.6290187162106804 503.63587545742677776 503.64679956731549737 503.6743174545781585 503.64859008126222761 503.6335412411674497 503.61405197972186443 503.60521930308084393 503.58779010875417725 503.5716890414912541 503.55503870222258911 503.53547796824898342 503.51282770516576193 503.46739410522172875 -9999 -9999 -9999 
-9999 -9999 -9999 -9999 -9999 -9999 -9999 -9999 -9999 -9999 -9999 503.5455189558889515 503.57997636657466956 503.53427215487414514 503.55623943313275959 503.57309736032482306 503.58057737607208537 503.58548380247020759 503.591940752181074 503.59885268038999584 503.60879581562141993 503.62169930537191931 503.64697293729625471 503.62064818968849522 503.60217264660309411 503.58934082675978061 503.57757003464411127 503.56446993759465158 503.54853477095815606 503.52711893882604954 503.50658874404990684 503.47915981180932476 503.43987620972524155 -9999 -9999 -9999 
-9999 -9999 -9999 -9999 -9999 -9999 -9999 -9999 -9999 -9999 -9999 503.46376261133360686 503.51248582553574806 503.51300489381594616 503.5364008538687699 503.54650924051952643 503.55919597562450463 503.56490509589599469 503.56882801908119518 503.57740008712050894 503.58536706879385747 503.59736546208978325 503.61937091790076693 503.59346992156611122 503.57923815294327596 503.55940209885176273 503.55155447184449713 503.53743014383871923 503.51924370004269349 503.50888065750700662 503.48491321010362753 503.46127701064773419 503.42118126549024737 503.34687340766708985 -9999 -9999 
-9999 -9999 -9999 -9999 -9999 -9999 -9999 -9999 -9999 -9999 -9999 503.46075445493119105 503.51480678317079764 503.48069186716429613 503.50198820764546781 503.51861485951462782 503.53216236987753973 503.53875129764151097 503.54420255209220159 503.55295842398339801 503.55956483917339028 503.57219793104388827 503.59553192565522295 503.56985737321735996 503.55276501203508133 503.53374563034617495 503.52582451051762291 503.51213051871604875 503.49511253830149826 503.47876237816637968 503.44976522017822163 503.42821305766489104 503.38863861164668378 503.29893331980787252 -9999 -9999 
-9999 -9999 -9999 -9999 -9999 -9999 -9999 -9999 -9999 -9999 -9999 503.3952317944222159 503.47544252981811042 503.46823319591453583 503.47857021530558086 503.49337258358087865 503.50404534393760514 503.51040415694058083 503.51811339719870375 503.52666454259309603 503.53482064161386234 503.5474380472910525 503.57202279560158331 503.54692570736835933 503.52802908292403572 503.50861688685938589 503.49925597146960854 503.48654912195479483 503.47272559529380942 503.45232727118286675 503.4289435092163103 503.40366456610075829 503.36394130341125219 503.28110710715770892 -9999 -9999 
-9999 -9999 -9999 -9999 -9999 -9999 -9999 -9999 -9999 -9999 -9999 503.37564107901374655 503.42585495304615506 503.42912682101695054 503.44652300336093731 503.46757633973459178 503.4780916871936256 503.4857074198725968 503.49220383992667394 503.50163680387436216 503.51124846474465357 503.51995772443609667 503.54214098781102393 503.52151445557763054 503.50343570362531409 503.48418235613564775 503.47368533911571831 503.46359810290977066 503.44601514643761675 503.42948322733428768 503.40050344915050573 503.37648809710208297 503.33134176836210827 503.24831829857544108 -9999 -9999 
-9999 -9999 -9999 -9999 -9999 -9999 -9999 -9999 -9999 -9999 -9999 503.34191219830569253 503.38769695310077168 503.41957472951895625 503.42070328097167931 503.44244739193533178 503.45277201909135556 503.46099053303464643 503.46861233658427182 503.47483548499502604 503.48371373964477016 503.4913892534445381 503.51614350716965873 503.49775417016877554 503.48101232752156875 503.45636749292754075 503.44855404113599207 503.43300079738952491 503.41923526055603588 503.40333185395331839 503.38016300885198007 503.34876701500382978 503.31815855172840202 503.2404215119647688 -9999 -9999 
-9999 -9999 -9999 -9999 -9999 -9999 -9999 -9999 -9999 -9999 -9999 503.31746041248334222 503.38623585623355439 503.38017275321254829 503.39543434288145818 503.4264147081528904 503.42623394087468114 503.43375632522077012 503.43967848842373769 503.44691693631517637 503.45502649609824175 503.4635262435142522 503.48687673306937995 503.46936086951836842 503.45440533102612335 503.43092655758528053 503.42150940425881345 503.40511739118687728 503.39071700337166249 503.37762780340227664 503.35004406427731283 503.32450355077321547 503.29959866038029759 503.2314172235631986 -9999 -9999 
-9999 -9999 -9999 -9999 -9999 -9999 -9999 -9999 -9999 -9999 -9999 503.29721674523432284 503.3584394211044355 503.35528424797581692 503.36911458523775309 503.38909063984010572 503.39845014921161237 503.40576334932217151 503.41436768044263772 503.42103770250025718 503.42824571781244458 503.43720057752886987 503.45730949680091726 503.44271619281136054 503.42430811264074464 503.40456910453440287 503.40007751765278954 503.37923702644479818 503.36614963472658246 503.35240927353220286 503.33299261517140621 503.29360686990662543 503.26734789458038222 503.2065691693876488 -9999 -9999 
-9999 -9999 -9999 -9999 -9999 -9999 -9999 -9999 -9999 -9999 -9999 503.29482700517286275 503.32677042425694935 503.32123288872799094 503.34248466109119136 503.35928623989138941 503.37389025468024784 503.37881138152647509 503.3873525383659171 503.3946707573516619 503.40329664292733014 503.41039450718830039 503.43151072454458017 503.41555286590920559 503.40060700000037741 503.38165872514707644 503.37025956012212191 503.35455182251411088 503.34359436152169565 503.32725436810835618 503.30442715726411507 503.27473904426744866 503.246057446701343 503.1648492348867876 -9999 -9999 
-9999 -9999 -9999 -9999 -9999 -9999 -9999 -9999 -9999 -9999 -9999 503.26320951144094806 503.30306741254310055 503.29958874820113124 503.32585165647310532 503.33366586308750357 503.3451342485180362 503.35448691185200687 503.36011399174503822 503.3688827753102828 503.37614753751518037 503.384096957898862 503.40950658170118004 503.39465341112253327 503.37756021618389468 503.35714502486166566 503.34632209746331455 503.33076801716265436 503.31724784516535465 503.3006365338265482 503.27747120029061989 503.25118032573095661 503.22749246620566055 503.1869916583008262 -9999 -9999 
-9999 -9999 -9999 -9999 -9999 -9999 -9999 -9999 -9999 -9999 -9999 503.21367676878531938 503.24925441178271512 503.27800678492326369 503.29387224513089905 503.30938073200906047 503.31747999961072537 503.32842473903900782 503.33307592491865989 503.34165572005082367 503.34662599841868769 503.35711363913651439 503.38275323614789158 503.37142273982561846 503.35120063661298673 503.33081112014036762 503.32457243691561644 503.30617559219945178 503.29250406363939874 503.27811546605596504 503.24796542941624011 503.22489558762038087 503.19744309874181454 503.14430093713366432 -9999 -9999 
-9999 -9999 -9999 -9999 -9999 -9999 -9999 -9999 -9999 -9999 -9999 503.1906009528524919 503.23350716788348791 503.24230089788346731 503.26703443637279634 503.28152775330721624 503.29183097729350038 503.30075622251280265 503.30626556761291113 503.31455184008189008 503.32298705820818441 503.33044201828971609 503.35625567560981608 503.3426284374151578 503.32307954568869945 503.30336342694579344 503.29656852773968012 503.28033105730128227 503.26598499936631015 503.25380598994917136 503.2250420518618057 503.19208779259014364 503.18453814616663067 503.12236793124475298 -9999 -9999 
-9999 -9999 -9999 -9999 -9999 -9999 -9999 -9999 -9999 -9999 -9999 503.17229540237548235 503.22778050769142055 503.25171364689884967 503.24931623284567195 503.26027627501377992 503.26918218200103183 503.27632019446650702 503.28149630918517232 503.29064868426058865 503.2973430103965029 503.30641173784914599 503.33071918762840369 503.31845823441346965 503.29451705433115194 503.2754350543271471 503.26707344477017614 503.25098554448823052 503.23975925743206972 503.22830784714699348 503.20249278082650335 503.16801287634564233 503.13654907443111597 503.08990198076503475 -9999 -9999 
-9999 -9999 -9999 -9999 -9999 -9999 -9999 -9999 -9999 -9999 -9999 503.13859824887612149 503.2034649104398909 503.20029251740413656 503.21275080618579523 503.22806796733635792 503.24207234408009981 503.25070913260293537 503.25613914113910141 503.26280833314280017 503.26911560575257454 503.27979877141575571 503.30553670380407993 503.29742477573284987 503.27298419995332779 503.25014980327568992 503.24197591917032923 503.22742993842388159 503.21417593414730618 503.19429460478312421 503.17079765609895503 503.14558242440381264 503.11862234268727434 503.09165384579773672 -9999 -9999 
-9999 -9999 -9999 -9999 -9999 -9999 -9999 -9999 -9999 -9999 -9999 503.12302718950076041 503.15856282604448779 503.17327500240048721 503.189240329188749 503.20393807760217442 503.21555567888958649 503.22127050249429203 503.22724015102591011 503.23471943496514314 503.24240544758384885 503.25365338670712845 503.27693086959459379 503.27436014848325385 503.24806094873218854 503.22502690479274179 503.21604836471698263 503.20247451235934477 503.18838360765550988 503.17050363872351681 503.14469694535750932 503.11479091092206772 503.09488379776985312 503.05189219817566482 -9999 -9999 
-9999 -9999 -9999 -9999 -9999 -9999 -9999 -9999 -9999 -9999 -9999 503.08270722552367715 503.12594789498467662 503.15949353652234777 503.16679569895933355 503.18005865164451507 503.1910363089831435 503.19311006144943121 503.19985135628735406 503.20770571617987343 503.21856896123244951 503.22935354051099921 503.25146744768295548 503.24655094291347268 503.21961579026338995 503.19811303975217243 503.18703146236214252 503.17607773324266418 503.16008687553284062 503.14526042585112009 503.12516847899934191 503.09540133363469749 503.07670974147902143 503.03758523600203034 -9999 -9999 
-9999 -9999 -9999 -9999 -9999 -9999 -9999 -9999 -9999 -9999 -9999 -9999 503.12346531852591625 503.13338893420205977 503.13985466343012831 503.15697108764175027 503.16677693372855629 503.16914615277846679 503.17847765896652845 503.18548997314320559 503.19498025304511657 503.2027166064535777 503.22332894610474341 503.22436706041554544 503.19543007837950199 503.17568551607297422 503.1625927546211301 503.15245000904684503 503.13461637529655945 503.12015839336288536 503.0967384223097838 503.06351213958674862 503.04659042649626599 503.00638678002587767 -9999 -9999 
-9999 -9999 -9999 -9999 -9999 -9999 -9999 -9999 -9999 -9999 -9999 -9999 503.07005387614020719 503.10288538494023669 503.11519102884511767 503.12566875708165526 503.14045976465541798 503.1440693825516064 503.15458258795609936 503.15895846844261996 503.16925184295104145 503.17647082309758844 503.19635079224570973 503.19545056630261115 503.1732896414060292 503.15057037495881787 503.14084459734516486 503.1272671086762216 503.11192115224508825 503.09472402957362647 503.07367871866716769 503.04075634544983586 503.03251417404862877 502.98252387528145846 -9999 -9999 
-9999 -9999 -9999 -9999 -9999 -9999 -9999 -9999 -9999 -9999 -9999 -9999 503.07352752950879449 503.0672545768682653 503.09202881032427968 503.10125212225301539 503.11192810316811119 503.11655033934493986 503.12516382402930049 503.13254385383106637 503.14206402679639041 503.15022582526552242 503.17114395938187954 503.16994322114192073 503.14362773227566095 503.12458747561151995 503.11194948319183595 503.10288599381681252 503.08776554398133385 503.07143656222842765 503.04703313934527387 503.01423546864856462 502.99704687740683084 502.96041686898718126 -9999 -9999 
-9999 -9999 -9999 -9999 -9999 -9999 -9999 -9999 -9999 -9999 -9999 -9999 503.00804222825775014 503.04741328841174663 503.06214705713387048 503.0738165878755126 503.08246477886888215 503.09225998874967445 503.0966247603633974 503.10357452964575486 503.11281364999291554 503.12199332780573968 503.14356518610429703 503.14526380275140127 503.11541335117789231 503.09915538097180843 503.0865363527547629 503.07237349994528586 503.05840500973420149 503.04349421081747096 503.01584075439501476 502.99156480908749245 502.96842822763505865 502.98681668911302722 -9999 -9999 
-9999 -9999 -9999 -9999 -9999 -9999 -9999 -9999 -9999 -9999 -9999 -9999 503.02427629805293918 503.02431878146961708 503.03537947025483845 503.04978128177504004 503.06025668031901432 503.06301506079091723 503.06998164218646252 503.07665968812000301 503.08590829066861261 503.09463132792620854 503.11763990169561112 503.12230202790436806 503.09067392475435554 503.07163557102893492 503.0587694573060844 503.04861177574247222 503.03187948344464075 503.01750844969438958 502.99165059714948711 502.96528531155558994 502.94111983720887338 502.90634549078549753 -9999 -9999 
-9999 -9999 -9999 -9999 -9999 -9999 -9999 -9999 -9999 -9999 -9999 -9999 502.97599008067857085 502.98402683107258326 503.00090025965602081 503.02057285860740876 503.03151925125689559 503.03668747438854325 503.04190512816768432 503.04992623659541096 503.06213262623430182 503.06880802400985431 503.09025323145988295 503.09273412420895966 503.06830360760773146 503.04743127987603657 503.03826446379713389 503.01924333064840766 503.00513420943758547 502.99357731366973212 502.96591436636492745 502.93837672599750022 502.91099637138796652 502.88345140718075754 -9999 -9999 
-9999 -9999 -9999 -9999 -9999 -9999 -9999 -9999 -9999 -9999 -9999 -9999 502.95401094465154301 502.96879751459482577 502.98671589376249358 502.99970216528572564 503.00888385625250976 503.01008210922952912 503.01608039876055045 503.02453468120762636 503.03294988826382905 503.04103983663208055 503.06140200573901211 503.06465862082183094 503.04338618450816512 503.0204815273461918 503.00540505965233251 502.99585847894388735 502.98160509066212853 502.96851750656077229 502.94602476363945698 502.91339148572546947 502.89127099047050251 502.86734254596120763 -9999 -9999 
-9999 -9999 -9999 -9999 -9999 -9999 -9999 -9999 -9999 -9999 -9999 -9999 502.95559561302314933 502.96393040798568563 502.95420933094709426 502.96835644681868871 502.98094335468147165 502.98404324139852406 502.99090928100713427 503.0005520662652998 503.00815941595260483 503.01663847163052878 503.03646338378604241 503.03745270055662786 503.01241838981815135 502.99460783966486588 502.97879221285899121 502.96922783638075316 502.95633728324560252 502.93904621362173657 502.92152998612618831 502.89086211637766155 502.87119534152452616 502.83442592772854596 -9999 -9999 
-9999 -9999 -9999 -9999 -9999 -9999 -9999 -9999 -9999 -9999 -9999 -9999 502.89280628283819397 502.91185182519905084 502.93466236046918993 502.94243905541725326 502.95176629728854323 502.95795968863660619 502.96585683287344182 502.97337079921084069 502.98249716794680353 502.99129851527072788 503.00932121718534518 503.0093699208422322 502.98196025612890026 502.96662118433960131 502.95289790191600332 502.94639158728500661 502.9304340398245472 502.91682293007886528 502.89366098823148832 502.86883275015674144 502.84492224287123463 502.82588260097276134 -9999 -9999 
-9999 -9999 -9999 -9999 -9999 -9999 -9999 -9999 -9999 -9999 -9999 -9999 502.85762247898202304 502.88760516917392351 502.90259452304417209 502.91247898927360893 502.92506928538148259 502.9308379346588822 502.93975388707593766 502.94701275086572423 502.95654723194638791 502.96425023717227987 502.98218470892965115 502.98465092105061558 502.95768123378468317 502.94070560868055964 502.92825066567058911 502.91718324601112045 502.90556957333575383 502.89274367661312226 502.87203169383485601 502.84109401490707114 502.81579202896318748 502.79908815495775798 -9999 -9999 
-9999 -9999 -9999 -9999 -9999 -9999 -9999 -9999 -9999 -9999 -9999 -9999 502.83494557313832729 502.85081270869892478 502.87247201499047833 502.8885527482350426 502.89824131530184559 502.90412105082475591 502.91392118735649319 502.91989065361207167 502.93141410027550364 502.93675377557127604 502.95381393073353138 502.95821281228398902 502.93569475738974006 502.91788397622980256 502.90862295750781641 502.89154670393122615 502.88035810134425674 502.86984064701215402 502.85444136242227842 502.81809855279141175 502.79226543778429459 502.77146670762681424 -9999 -9999 
-9999 -9999 -9999 -9999 -9999 -9999 -9999 -9999 -9999 -9999 -9999 -9999 502.82316353096342709 502.83748666253006832 502.84402703252987976 502.86188067305448612 502.87919517953156401 502.8806308342497573 502.88963822619842858 502.89792223812276006 502.90482431075304248 502.9130776801147249 502.92675914101829449 502.93003989919390051 502.91291623198560501 502.89352781921451196 502.87796533630614704 502.86486983939533957 502.85259672585192448 502.83659590312333876 502.81503757722833825 502.79102170844493003 502.77125340360299788 502.75324487215925728 -9999 -9999 
-9999 -9999 -9999 -9999 -9999 -9999 -9999 -9999 -9999 -9999 -9999 -9999 502.78018610741605698 502.79946164051489177 502.81838045456248665 502.83701223254934121 502.85133372892778425 502.85490267209831927 502.86313771096951086 502.87153758254146396 502.87791291597210375 502.88648352772906946 502.90409995348881012 502.90394230999339698 502.88415689700764233 502.86411054461296999 502.84730923772627875 502.83707628785941779 502.82870430824237928 502.81212748418596448 502.78613579573482184 502.78096094808836369 502.74084741466435844 502.72064395885536214 -9999 -9999 
-9999 -9999 -9999 -9999 -9999 -9999 -9999 -9999 -9999 -9999 -9999 -9999 502.74898861676501838 502.7850959942277882 502.78822592752914034 502.80477046353450987 502.82154111722837797 502.82610871966141985 502.83805607654517189 502.8459520249250545 502.85438023365958315 502.86058568274722802 502.87692526008402183 502.87804314367519964 502.85635842662691175 502.83464069899167725 502.82044950621690305 502.80822728108540787 502.79873558275579626 502.78400507588372648 502.76061440174072459 502.73752087183868298 502.71799575881999544 502.69589276345379858 -9999 -9999 
-9999 -9999 -9999 -9999 -9999 -9999 -9999 -9999 -9999 -9999 -9999 -9999 502.73033330092363258 502.75292477748484998 502.76815220648751392 502.78000323872998933 502.79290891153573284 502.79895478921002905 502.81063605131851091 502.81984259027217377 502.82517628315565617 502.83330570686786132 502.8476751200875583 502.85222435866666046 502.82954397983007766 502.81155081813039942 502.79858217577776713 502.78304287932252237 502.77578991183446533 502.75604437682596881 502.73544207035274667 502.71314527302916986 502.68943972522487229 502.6682643656753271 -9999 -9999 
-9999 -9999 -9999 -9999 -9999 -9999 -9999 -9999 -9999 -9999 -9999 -9999 502.69574509588341016 502.72185209349134993 502.74809850943415768 502.75642697981163565 502.76854748866094269 502.77498664804892314 502.78285208430156672 502.79019231127176681 502.79745462668250866 502.80587846996650114 502.82214523784739413 502.82680226801818435 502.80481433034822203 502.7845933949593018 502.76802501100632981 502.75984903249707259 502.74511471958561515 502.73076984107774479 502.7105180896248271 502.68961837591359654 502.66025770274711704 502.63663753957337121 -9999 -9999 
-9999 -9999 -9999 -9999 -9999 -9999 -9999 -9999 -9999 -9999 -9999 -9999 502.66276457983565251 502.69508361047519429 502.71921503041642154 502.73000043522085889 502.74285205964281431 502.74557499897480284 502.75404915452713794 502.76182511504958939 502.76917456339413093 502.77796768322525622 502.79524702282844828 502.79909794586251337 502.78148000655863825 502.75867558499294319 502.74237191539890546 502.7321836601920495 502.71817666837603156 502.70340308565357645 502.68414679597367467 502.66355002245586547 502.63566865468948208 502.61367268225933458 -9999 -9999 
-9999 -9999 -9999 -9999 -9999 -9999 -9999 -9999 -9999 -9999 -9999 -9999 502.66311609061267518 502.66979178297560793 502.69996695083079885 502.70369354211902646 502.71474299079835646 502.71910868499844582 502.72822951607452069 502.73606969705826941 502.74312000093499364 502.75163835850639771 502.76696326638597156 502.77083501227303941 502.7552016833410562 502.73406618435205928 502.71721718799147993 502.70570737646914949 502.69222099501001821 502.67652394728986565 502.65558550868246357 502.63291017180387144 502.61229051009627256 502.59017176144521954 -9999 -9999 
-9999 -9999 -9999 -9999 -9999 -9999 -9999 -9999 -9999 -9999 -9999 -9999 502.60974356563127685 502.64645992320168943 502.65260575877033489 502.67279622792409555 502.69111083681309537 502.69062345605624387 502.70217641150549071 502.71261416726559901 502.71781169044521675 502.72609292442342621 502.73991186983130319 502.74294321480550707 502.72501728976521918 502.70830842474447309 502.69159708537131337 502.67818239426856053 502.66763061730858908 502.65172785214576834 502.63153481314401461 502.60648622630651516 502.58965826439219882 502.56559072898454588 -9999 -9999 
-9999 -9999 -9999 -9999 -9999 -9999 -9999 -9999 -9999 -9999 -9999 -9999 502.60536767023393168 502.61716088031283789 502.63326796907728067 502.64687060289043075 502.65835945480182545 502.66575458852707925 502.67442526533778846 502.68427884945708684 502.69035680160754964 502.70171637146239618 502.7164428540119161 502.72099913727862486 502.70120824036064278 502.68286804776346344 502.66577950880588332 502.65513319899736189 502.64203815404096076 502.6257732532945397 502.60537664685557502 502.58583233603877716 502.56297962075990426 502.54801196306772226 -9999 -9999 
-9999 -9999 -9999 -9999 -9999 -9999 -9999 -9999 -9999 -9999 -9999 -9999 502.56655469636535827 502.58809881953681042 502.60184009739964495 502.61753336839143458 502.62903249371282755 502.63649724570871058 502.64937074540796402 502.65611531388634603 502.66305631286775224 502.67624387018997822 502.68983568124110661 502.69454229952270907 502.67549667286976955 502.65246965620093533 502.63594537895789927 502.6241180141707332 502.61463089125095394 502.60177243815269321 502.58544896171474647 502.56183172372567469 502.53239704832424195 502.51061149336590006 -9999 -9999 
-9999 -9999 -9999 -9999 -9999 -9999 -9999 -9999 -9999 -9999 -9999 -9999 502.53829505489994744 502.56201433552320168 502.57681258488969434 502.59869226829562194 502.60245913524113348 502.61218745955449094 502.61908386265281479 502.62661628845165751 502.63670488107197798 502.64806073843215017 502.65941321741325964 502.66490809502738557 502.64993760484810537 502.62635796514319964 502.6079610107199187 502.59783504510369312 502.58779540637254968 502.57462332281914996 502.55639829499926918 502.53497305436729903 502.50790060662694714 502.4890603184221618 -9999 -9999 
-9999 -9999 -9999 -9999 -9999 -9999 -9999 -9999 -9999 -9999 -9999 -9999 502.50067597475111825 502.52922944599822586 502.54301879713142398 502.5682982000012089 502.57716080571350403 502.58530974780194356 502.59392007547285175 502.60197723517973145 502.6120612152487297 502.61900661751815278 502.63023237572730295 502.63806452515660794 502.62375932633597131 502.60108541206921018 502.58523516693674082 502.57265781898706791 502.56333860802277513 502.54775721112059728 502.52563482672479722 502.50275565843526238 502.4846934924839843 502.46122447622144591 -9999 -9999 
-9999 -9999 -9999 -9999 -9999 -9999 -9999 -9999 -9999 -9999 -9999 -9999 502.47522963839588783 502.50770934630708098 502.52340777908017344 502.53945999889850782 502.55173508629917478 502.55844817936105073 502.56566709271555737 502.57539160437033843 502.58405872832923933 502.59047435327636322 502.6073902712617496 502.61267149593351178 502.59532048220944489 502.57495209985967222 502.5551834589966802 502.54662726991944055 502.53723374648018307 502.52158142779603622 502.50276862842741821 502.47955147243334295 502.45632337424575553 502.43829601752139524 -9999 -9999 
-9999 -9999 -9999 -9999 -9999 -9999 -9999 -9999 -9999 -9999 -9999 -9999 502.47144109589135041 502.47397395711413992 502.5101309515353023 502.51606966464265724 502.5229876065804433 502.53144249938878829 502.5416895453554389 502.54743411302752065 502.55721844371362295 502.56501273817474384 502.58109317710739106 502.58651111936791267 502.57019819391814508 502.54813944624993383 502.5292515234318671 502.51785680232757159 502.50776464298218116 502.49364406847149667 502.47502319067939425 502.45881905107574994 502.43214707965142907 502.4069956749569883 -9999 -9999 
-9999 -9999 -9999 -9999 -9999 -9999 -9999 -9999 -9999 -9999 -9999 -9999 502.42568658671427784 502.44595478247993015 502.4699474939685615 502.48517584061977459 502.49773468045424352 502.50099496140552446 502.51378483997353896 502.51992441921379395 502.52661515585629104 502.53801760238053475 502.55257349827877533 502.56046071147738985 502.54533517784426522 502.52139345383386626 502.50228952073757682 502.49259577821021594 502.48298012605926033 502.46913753885883125 502.4530933311359604 502.43540522885268729 502.40403367091164455 502.38690361384959715 -9999 -9999 
-9999 -9999 -9999 -9999 -9999 -9999 -9999 -9999 -9999 -9999 -9999 -9999 502.41682979200237469 502.43612625842604302 502.43381031263379555 502.45340084812056602 502.46877618356495532 502.47237461251438617 502.48476792110255928 502.49323007828149912 502.49850239812940345 502.51011666666624933 502.52408846285925392 502.5350582610264496 502.51486949514145408 502.495252969690398 502.4744399999651705 502.46498737403766199 502.45591023320946533 502.4424320787538818 502.42275777930626646 502.40005043800005069 502.38319856262580743 502.3622175722304064 -9999 -9999 
-9999 -9999 -9999 -9999 -9999 -9999 -9999 -9999 -9999 -9999 -9999 -9999 502.38829755786900932 502.39336123919957799 502.40916372342417162 502.42294350613371989 502.44131354873468354 502.44662248948458227 502.45786499261600966 502.46579737013172462 502.47318347246539361 502.4831622442525827 502.49669339524581346 502.50696620655890001 502.49046165106869921 502.46870901979207247 502.44934823211076491 502.4425320695286814 502.4314191296719514 502.41571822067595576 502.39574129451926865 502.3779445194974187 502.35807109341436671 502.33272378001572633 -9999 -9999 
-9999 -9999 -9999 -9999 -9999 -9999 -9999 -9999 -9999 -9999 -9999 -9999 502.34208527813751743 502.35842637669225041 502.40023764707285636 502.39623462377585383 502.40971507432004728 502.41683533057749855 502.43018927291433329 502.44042044378198852 502.4476749329888321 502.45548590524879273 502.46967612343928522 502.47930497188247045 502.46317148829541566 502.44242338279804017 502.4193220060085423 502.41470077539833028 502.40060200238366406 502.38871941215950301 502.36905655318139452 502.35693449314112513 502.3332383147243263 502.30398035463844053 -9999 -9999 
-9999 -9999 -9999 -9999 -9999 -9999 -9999 -9999 -9999 -9999 -9999 -9999 502.31186802897741472 502.34357845407475907 502.35494027198546974 502.36837547725798458 502.38482443945844125 502.39431273607590356 502.40266343801033599 502.41310249985508563 502.41856626473162351 502.42687442797409858 502.44147126762794642 502.45580805212136966 502.44181207503123687 502.41156017583250559 502.39399801275681057 502.38489385890926542 502.37158338252299927 502.36038052961470157 502.34477466015260916 502.32078613020593139 502.30027919885975507 502.27682198532858138 -9999 -9999 
-9999 -9999 -9999 -9999 -9999 -9999 -9999 -9999 -9999 -9999 -9999 -9999 502.27362604768529764 502.3109168098052919 502.33088189716556826 502.34984299551325648 502.35805938806771564 502.36824489191621979 502.37435056506194542 502.38323935810740295 502.38957753982208487 502.39945698279302633 502.41231370801079947 502.42597841692440852 502.41215222725861622 502.38643360928938364 502.36770056717529087 502.35762666417383571 502.35044363055374106 502.33280989652632798 502.31714697325247698 502.29726226235504782 502.26866189057489009 502.25528456478531325 502.22152102879243785 -9999 
-9999 -9999 -9999 -9999 -9999 -9999 -9999 -9999 -9999 -9999 -9999 -9999 502.26306512044322972 502.29540746082687974 502.30182164020033042 502.32061339821501633 502.33329895761119133 502.34241544073108798 502.34866383116042243 502.35359144066410408 502.36196037604071307 502.37026799401348853 502.38619246993005163 502.39754443247534255 502.38646405243298432 502.35933523187725314 502.34000930571278332 502.32694030250223705 502.31968812411855652 502.30708710513960114 502.28943446140254991 502.27466250842644513 502.24548365155936835 502.22685651064779222 502.19429200862640528 -9999 
-9999 -9999 -9999 -9999 -9999 -9999 -9999 -9999 -9999 -9999 -9999 -9999 502.22046678275404474 502.26385892273953004 502.2739603361724221 502.29112192567674811 502.30301154808802266 502.31346611335419539 502.31920088605500041 502.32816251639707161 502.33547370485894135 502.34542679385708652 502.36005793644915229 502.3697256923110217 502.35956733289310705 502.33464243553783035 502.31350520270882498 502.3027849072913682 502.29206624201646036 502.27857112421060037 502.261901813915415 502.25845228855536106 502.21656611597182973 502.19815265118296566 502.15559541857885506 -9999 
-9999 -9999 -9999 -9999 -9999 -9999 -9999 -9999 -9999 -9999 -9999 -9999 502.22004473538260072 502.21928434064420799 502.24385526142015124 502.26049469578214257 502.2767745325749047 502.28634314160598251 502.29307781368663655 502.29805094325581649 502.30650901436894173 502.31731480676324963 502.33232998857454277 502.34535831265361594 502.3337422072714844 502.30750424357842121 502.28818560986269404 502.27351859778872267 502.26274131297509484 502.25313992500065297 502.23111701935152951 502.2138944411667012 502.18977451439917559 502.16875588164839428 502.13995132044146885 -9999 
-9999 -9999 -9999 -9999 -9999 -9999 -9999 -9999 -9999 -9999 -9999 -9999 502.16001188618099604 502.19909962638575962 502.21121091496752342 502.23252360252058679 502.24634906274036439 502.25896444215925385 502.26204643108269465 502.26950256168669284 502.27786292961781101 502.2895714910474112 502.30139735495947662 502.31647891540711726 502.30533312170194904 502.28011193786488775 502.25941102600324939 502.25025246911161503 502.23696528540932604 502.22699380638192679 502.20547709581836671 502.19090309541076067 502.15998745786140489 502.1415677815956542 502.10453104008371383 -9999 
-9999 -9999 -9999 -9999 -9999 -9999 -9999 -9999 -9999 -9999 -9999 -9999 502.13661825872162581 502.1622879113918998 502.19839212008156437 502.20508840337191714 502.2209514229521119 502.23066791457102909 502.23334184370247613 502.2408788787114986 502.25106317992765526 502.25841141898519027 502.27197567969545844 502.28646755838252602 502.27970700781281721 502.25380997838612984 502.23172065480633819 502.22216311201418648 502.20955567138526021 502.19436435637589966 502.17688125236213637 502.16490562730029978 502.14341504649365788 502.1164380025779792 502.08612058716374804 -9999 
-9999 -9999 -9999 -9999 -9999 -9999 -9999 -9999 -9999 -9999 -9999 -9999 502.10696362350671507 502.1341339500663139 502.15949915025430528 502.17568000488751068 502.19213687399650325 502.20166427540601717 502.20482297276805639 502.21395910600784873 502.21980429728677109 502.23075353766023454 502.24265775223642549 502.25809762940349401 502.25255280332009988 502.22554615823139557 502.20757404452780293 502.19282151102015632 502.18550936481500457 502.16877370674347958 502.15341980083718454 502.12721410839930059 502.11051050044568456 502.09157340874315878 502.07001501114382336 -9999 
-9999 -9999 -9999 -9999 -9999 -9999 -9999 -9999 -9999 -9999 -9999 -9999 502.10888084661013409 502.10545328568662171 502.12460143836852922 502.15739247051709526 502.16256100755890657 502.17321207846612197 502.17829053727655264 502.18552457964710811 502.19283249443941486 502.20057122409775729 502.21361985327894217 502.22874432517278365 502.22490782260649667 502.19902250604138771 502.17766281398149886 502.16495213684856935 502.15590307100978862 502.14474862255093512 502.12513507268266721 502.10689897739507614 502.08514661293531844 502.06536820841938606 502.04151460598455969 -9999 
-9999 -9999 -9999 -9999 -9999 -9999 -9999 -9999 -9999 -9999 -9999 -9999 502.06705815051168429 502.0751859472628098 502.1070594158154563 502.1168250463999243 502.13479187650307267 502.14522890422119872 502.14783734776528945 502.15377460671652443 502.16206564730288164 502.17340307145843781 502.18700935835630617 502.20095035943569428 502.19399456413896132 502.16736218974517669 502.14905657217525459 502.13483038631960653 502.12684222287288094 502.11126002085541131 502.09688566564062739 502.08120781318416448 502.06235523304684421 502.03687441051880569 502.02056361000023799 -9999 
-9999 -9999 -9999 -9999 -9999 -9999 -9999 -9999 -9999 -9999 -9999 -9999 502.02725926822415659 502.05617544001501074 502.07598436353629268 502.09025604166725998 502.10572671539409839 502.11371013158969845 502.11634664007277706 502.12398182502465716 502.13278602038809595 502.14355765412676647 502.15584383324613782 502.17386833276236757 502.16723961574899704 502.13875578666073807 502.11913957212118476 502.10767468664658963 502.09777604083558344 502.08452631634804675 502.07011502545930171 502.0559659260953822 502.03427624604773882 502.00687350031932965 501.98201434203582494 -9999 
-9999 -9999 -9999 -9999 -9999 -9999 -9999 -9999 -9999 -9999 -9999 -9999 501.99707268788563397 502.02362319373463606 502.05208729409997659 502.06083250195644041 502.07559890370720268 502.08552072820873491 502.08644064940529006 502.09633006819717593 502.10536269722706493 502.11256998258613748 502.12717283696014192 502.14309904248062821 502.13796751247855354 502.11134012962691031 502.09426171632190972 502.08167535949627336 502.07095860741799243 502.05806286696116558 502.04511159486560246 502.02865628661186292 502.00007526470938046 501.97211012116929396 501.95758235961699256 -9999 
-9999 -9999 -9999 -9999 -9999 -9999 -9999 -9999 -9999 -9999 -9999 -9999 501.96942324567072546 502.0052497733220207 502.01875564781096273 502.02735567913839532 502.05014595644200881 502.05625406464849902 502.06098777615034123 502.06591875084859566 502.07551610437093359 502.08385218407494222 502.09876175650606456 502.11656919088284212 502.11060004394840917 502.08250521278955603 502.06034172394510051 502.05150139388877051 502.04060978630036516 502.02891809538050438 502.01478141654752108 502.00033070741528718 501.97034992632109152 501.95098187021710601 501.93073017205864517 -9999 
-9999 -9999 -9999 -9999 -9999 -9999 -9999 -9999 -9999 -9999 -9999 -9999 501.93940566476209142 501.96679000573749363 501.99568482460858831 502.00305894382921679 502.01931984807185927 502.03018848683802844 502.03436121585127694 502.04089516846971719 502.04797200340175323 502.05885657500613206 502.07206068618864947 502.08391038174170262 502.08092827487581644 502.05542934417019296 502.03713568756171526 502.02245025951486923 502.01627560773226833 502.00167410985255856 501.98465953899938086 501.97124885723081889 501.94276707806869808 501.92546052787685085 501.9183363055435052 -9999 
-9999 -9999 -9999 -9999 -9999 -9999 -9999 -9999 -9999 -9999 -9999 -9999 501.91461153129705508 501.95105699751769635 501.96517638742977852 501.97113181574565033 501.98745740449555797 502.00326276365956346 502.00680334319230269 502.00897026565439774 502.01917660061570814 502.03151026813293356 502.0448600402812076 502.05660080919017219 502.05541407597104353 502.02936421506143461 502.0074097012029597 501.9942163045963639 501.98436746737598924 501.97165346055891177 501.96063858907353961 501.95199990276364588 501.91589767513545439 501.897964134942697 501.87496531423869328 -9999 
-9999 -9999 -9999 -9999 -9999 -9999 -9999 -9999 -9999 -9999 -9999 -9999 501.88175435870181218 501.90884535136387967 501.93825802081181564 501.94468264637862376 501.95925375727642859 501.97450975701252673 501.97513929378322928 501.98041763720175368 501.99213089487108164 502.00301206645212915 502.01734573475255274 502.03069708345793742 502.0235552682942739 501.99931998721694981 501.98197893808071512 501.96719337590212717 501.95945659187037791 501.94302139026331133 501.92961616064860664 501.91081825330314814 501.8916120389445723 501.87443239723972965 501.85548391535991186 -9999 
-9999 -9999 -9999 -9999 -9999 -9999 -9999 -9999 -9999 -9999 -9999 -9999 501.85440712312049527 501.88175056287127518 501.89925896140641726 501.92016192622793369 501.93157248299280582 501.94697662028818286 501.94500403103387498 501.95340744346492556 501.96385869220910081 501.97476212406775176 501.9880649722211956 501.99993914743106416 501.99589604456872394 501.96964096030211522 501.95318863633536921 501.94046016205510341 501.93101075368184638 501.9156350858662563 501.90465411154320918 501.8874562054394346 501.86097172932591093 501.844800164277558 501.825634265572603 -9999 
-9999 -9999 -9999 -9999 -9999 -9999 -9999 -9999 -9999 -9999 -9999 -9999 501.82253149345103793 501.85264765256806641 501.8706556250043036 501.88536567323865256 501.90266071264306902 501.92000995939406494 501.91866822937629422 501.92602966088446692 501.9346879384045792 501.94488641945480367 501.95966117277555441 501.97128923694708647 501.96867208655578452 501.93925990438941653 501.92696410784839145 501.91535233090627344 501.90384202636346345 501.89121724282415471 501.88087006858802397 501.86669743786933395 501.83494538065201596 501.81242575459543787 501.79664229222566973 -9999 
-9999 -9999 -9999 -9999 -9999 -9999 -9999 -9999 -9999 -9999 -9999 -9999 501.78846116984504988 501.8171143269660206 501.83921872340090431 501.85870753973375713 501.87781748824846773 501.89111049721242352 501.89158111984073685 501.89643917956493624 501.90794149275939162 501.9153099267826974 501.92812337778400433 501.942311073316489 501.94057484165756478 501.91372624156343818 501.8944486008171566 501.88256559065752072 501.87402720105990284 501.8615813428087904 501.8490044835361914 501.82788230220057812 501.81078939650251414 501.79619202750137674 501.7683494889787994 -9999 
-9999 -9999 -9999 -9999 -9999 -9999 -9999 -9999 -9999 -9999 -9999 -9999 501.77093064628570573 501.79797649812894633 501.8141991398389905 501.82467823078553693 501.84488230584287294 501.86128044691167815 501.86179496646047937 501.86855125802770772 501.87610590889806872 501.88733634418065321 501.89930239287775748 501.91196626273375614 501.91217597312561338 501.88693311855888624 501.86813692771761453 501.85573284892677748 501.84483748555595639 501.8363943634785187 501.82188475609166289 501.80383751512096069 501.78882720568566356 501.77050710402374989 501.74160514890201057 -9999 
-9999 -9999 -9999 -9999 -9999 -9999 -9999 -9999 -9999 -9999 -9999 -9999 501.73296946128476748 501.76452619744981121 501.78263731409708726 501.79782061838983509 501.8129699438230773 501.8292380868329019 501.8292826256510466 501.83638535524653435 501.84826161614495277 501.8571643958634354 501.86827931669296277 501.88082664245041542 501.88381647297427435 501.85723582270736642 501.84164847447163993 501.83045114988630075 501.81934445652694876 501.80909358565941147 501.79592966650812969 501.7880448411245311 501.76297044204085296 501.74158870796412657 501.71472995329679634 -9999 
-9999 -9999 -9999 -9999 -9999 -9999 -9999 -9999 -9999 -9999 -9999 -9999 501.699762609720608 501.74833825563990786 501.75966301671650172 501.7663634217601043 501.78541341189293234 501.8018186017810649 501.79885385452200808 501.80536107935489554 501.81633932060356074 501.82378990217307546 501.83783499819872986 501.85220077253887894 501.85527787823770041 501.8292511066289876 501.81364035506834398 501.79650106680799126 501.78894605412688179 501.78064492029591293 501.76885367802918836 501.74902489777588244 501.72978446831672272 501.71031004549354293 501.69036939068968195 501.63781372691488514 
-9999 -9999 -9999 -9999 -9999 -9999 -9999 -9999 -9999 -9999 -9999 -9999 501.67978433814602113 501.69127047584652246 501.72603521401981652 501.73298688184536331 501.75584639926103137 501.76892256259719716 501.76858729649245561 501.77729227119039024 501.78523021835434292 501.79159805072163181 501.8063826607944975 501.82355909947648342 501.82836668235961497 501.80468347783039462 501.78455615549160029 501.76855104513617789 501.76003099435166632 501.75404083941640465 501.740120650338838 501.72059251484608922 501.70376848940071568 501.68293845257181829 501.66163605491152566 501.60878532740059654 
-9999 -9999 -9999 -9999 -9999 -9999 -9999 -9999 -9999 -9999 -9999 -9999 501.64720200519610671 501.66486423036616316 501.68694662721799205 501.70936934215774272 501.73072010946134469 501.73960310317414724 501.73802416060772202 501.74369222302681237 501.75665293524082244 501.76164716418418266 501.77329236922327027 501.79374062067336126 501.7981432839998206 501.77496578061084165 501.75414235178345734 501.74364320412593088 501.73317507189796061 501.72647285954474228 501.71248807748440868 501.6957414562421036 501.67224475350354851 501.64943415926779835 501.61886820936774711 501.58447638450991235 
-9999 -9999 -9999 -9999 -9999 -9999 -9999 -9999 -9999 -9999 -9999 -9999 501.62100187020024578 501.64230873686744872 501.65860884185491386 501.68248905479958921 501.7109689642985586 501.71328440484319344 501.70957429537259031 501.71480613254499303 501.72419542362212042 501.73197653487164871 501.74723502643360007 501.76507520827965436 501.76659664257272198 501.74498382311458045 501.72603828340538712 501.71277465273249163 501.70241188348387595 501.69819962710613481 501.68556884440710064 501.66482810203012832 501.64690492482117179 501.62480783253357686 501.60598362396916627 501.65854860733509213 
-9999 -9999 -9999 -9999 -9999 -9999 -9999 -9999 -9999 -9999 -9999 -9999 501.59221048958630718 501.61124435749070472 501.63158321633784453 501.65704831036271116 501.6707459767762316 501.68297257237662734 501.68223101966020749 501.68650229178786049 501.69509016625295317 501.70579481301194846 501.71898093314513289 501.73534584778849421 501.74100416742231801 501.71419234186936364 501.69502324564911078 501.6844632349914832 501.67034055153328609 501.66909566954979027 501.65641575169388489 501.63720128927116093 501.60837645247761429 501.59626778679376002 501.57398016201085511 501.52572676066387203 
-9999 -9999 -9999 -9999 -9999 -9999 -9999 -9999 -9999 -9999 -9999 -9999 501.56332348461324955 501.59003952269995352 501.60705682413072282 501.62375253017410159 501.63768666940597996 501.65365505718625627 501.65261468615574358 501.65980161631802048 501.66677367547384847 501.67631982069417518 501.689468799302972 501.70798252315449872 501.71282894562864385 501.68964869354817893 501.66810790717210011 501.65383117322164708 501.64093204481076782 501.63658111015774921 501.62667686817303547 501.60392438453902741 501.59006097260487422 501.56897935445118719 501.54291412616902335 501.50559142948833369 
-9999 -9999 -9999 -9999 -9999 -9999 -9999 -9999 -9999 -9999 -9999 -9999 501.53057788447068788 501.55305351522804358 501.57437720415504145 501.59588649375058367 501.60949394284904201 501.62589525221602571 501.62396126805271024 501.63065714850222321 501.63934094586932133 501.64861269848285019 501.66056886667990966 501.67647996123605481 501.68305351560775307 501.65876957032907058 501.64173797463286064 501.62680880455047827 501.61046417357420069 501.60843379053363833 501.59551187532343874 501.57576245633407552 501.55892614164980614 501.54078602848585433 501.51989166634365347 -9999 
-9999 -9999 -9999 -9999 -9999 -9999 -9999 -9999 -9999 -9999 -9999 -9999 501.50406207218571808 501.52403408252610006 501.54940923346350701 501.56394429878372421 501.57951748490285127 501.59545692647020587 501.59582556687519173 501.60018706999767346 501.60609833942669411 501.61819624533455908 501.63104401381718844 501.64813144577732373 501.65148508354872092 501.62794688937435694 501.61654578131162907 501.59551297856620522 501.58331831836250103 501.57792531083953236 501.56616271751255454 501.5500322803037534 501.52748283259751361 501.50709059074245033 501.4875089096742613 -9999 
-9999 -9999 -9999 -9999 -9999 -9999 -9999 -9999 -9999 -9999 -9999 -9999 501.47421406730290983 501.49977823961921786 501.52506058439240633 501.52660954693595841 501.54795916821933588 501.56608185955877843 501.56843306339908395 501.57275228313181969 501.58004064276730105 501.59111209770929918 501.60253253064496448 501.62096707336019108 501.62385057198764571 501.60011703911351333 501.58311306189045808 501.56617345481117809 501.55363670047722735 501.54933857107562289 501.53800756787120463 501.52056336392126923 501.5026291223838939 501.48245857970420047 501.46224154465625134 -9999 
-9999 -9999 -9999 -9999 -9999 -9999 -9999 -9999 -9999 -9999 -9999 -9999 501.44293636278877102 501.46843373266972321 501.47956221490369444 501.50234911811196525 501.52106301510877984 501.53689867967199234 501.5421123787199349 501.5435510426028145 501.555250028641467 501.56413504459629848 501.57646117738664771 501.59023126385193336 501.59636438538348102 501.56738425449452734 501.55232557386227654 501.53919564117558139 501.52444586793262715 501.5198742618582628 501.51021994136823423 501.49477347063708521 501.47202967966910592 501.4512830540713253 501.43540496024894537 -9999 
-9999 -9999 -9999 -9999 -9999 -9999 -9999 -9999 -9999 -9999 -9999 -9999 501.41387346943503189 501.43373670910847295 501.45850561343331719 501.47403708577377301 501.49244645201349613 501.5029874766867124 501.51086630999679983 501.51406650461774461 501.52208120449574835 501.53406550499147443 501.5470716143739196 501.56087046423488118 501.56659644669088038 501.53826293694737615 501.52287722314758867 501.50954700556104626 501.49950986344902049 501.49200503595835698 501.48150339127312236 501.46705997435185509 501.44929527370175038 501.42194519464470659 501.40221881149932415 -9999 
-9999 -9999 -9999 -9999 -9999 -9999 -9999 -9999 -9999 -9999 -9999 -9999 501.38717792980588683 501.41119894993028083 501.42142847287180984 501.442625508309618 501.46113666555896771 501.47444227635253355 501.48018916218234153 501.48590969206139789 501.49452131856025972 501.50499189807800349 501.51594698320730004 501.53289105589107066 501.53961518427428246 501.51010243324549265 501.4950084620228381 501.48141787633920785 501.47206466580274764 501.46395758247706453 501.45532871085634952 501.43433769855261062 501.41937431590940832 501.39816595758247786 501.37945944747991689 -9999 
-9999 -9999 -9999 -9999 -9999 -9999 -9999 -9999 -9999 -9999 -9999 -9999 -9999 501.37908504046316693 501.3979895803108775 501.41563254151833462 501.42902292359661942 501.44871134123775391 501.45053800725958126 501.454324536928425 501.463787607602967 501.47296833129132665 501.4831448345902345 501.50424656059561812 501.51187899757792366 501.48571168480049209 501.46520591230091668 501.44906850252073127 501.44180211949799286 501.4325414953013933 501.42354050233285534 501.40706293545611061 501.39760741749938688 501.37078233731057253 501.35310598681184047 -9999 
-9999 -9999 -9999 -9999 -9999 -9999 -9999 -9999 -9999 -9999 -9999 -9999 -9999 501.34414188435408732 501.36700658951923515 501.38602972938116409 501.40258532546783954 501.41328076943204906 501.41923745193605555 501.42463549849077253 501.4321113812059707 501.44207605306513642 501.45282626371829338 501.47177005387555937 501.48144573184401906 501.45799124600233654 501.43813827553759666 501.42203169326967327 501.40960120255226684 501.40272412010597236 501.39723340915060135 501.37860847771895578 501.36584902401455111 501.33740304231997698 501.31370004578076305 -9999 
-9999 -9999 -9999 -9999 -9999 -9999 -9999 -9999 -9999 -9999 -9999 -9999 -9999 501.33883447496356212 501.33621015882380334 501.35606221804857796 501.37120262952640815 501.3869358475219542 501.38962749886798065 501.39338184307422353 501.40197008104092902 501.4112363030491224 501.42329474892193275 501.44350174643881246 501.45436996210736424 501.42870308173769445 501.40663461768860998 501.39112948686181426 501.38057458046137072 501.37493913062689899 501.36909055947700153 501.35211255357563687 501.33447154068733198 501.306028686212926 501.28511250587172299 -9999 
-9999 -9999 -9999 -9999 -9999 -9999 -9999 -9999 -9999 -9999 -9999 -9999 -9999 501.28595860711561727 501.31639882297741906 501.32334544676371024 501.34392225795630793 501.35904445211906477 501.36150743446313527 501.36879092451420092 501.37439001609112665 501.38509553838031252 501.39705202902905512 501.415051410683418 501.424571503193647 501.40214037533758074 501.37903159938565523 501.3686355393674603 501.35108827971862411 501.34785458654289414 501.34082317157458419 501.32707388328350362 501.301176586602935 501.29239618548422186 501.25302266814452423 -9999 
-9999 -9999 -9999 -9999 -9999 -9999 -9999 -9999 -9999 -9999 -9999 -9999 -9999 501.25192044268339941 501.27295268893720959 501.29491731157503409 501.31695322090848776 501.33684133837317631 501.33188022810998064 501.33388858419357348 501.34514546329972973 501.35442693779759793 501.36715952124546902 501.38505908536785682 501.39551986934912975 501.37644791595323568 501.35364725326735424 501.33993318274866624 501.32407572367395687 501.32175328667824488 501.31042043163830613 501.29631255802598844 501.28345848829479792 501.26169853674048227 501.22561525272936933 -9999 
-9999 -9999 -9999 -9999 -9999 -9999 -9999 -9999 -9999 -9999 -9999 -9999 -9999 501.22533909486514858 501.25591558882575782 501.26642210674759781 501.28399869007660072 501.30098969314877877 501.3071831731769521 501.30434156211333629 501.31472380799982602 501.32552027891358648 501.33657689066404828 501.35765969986499613 501.3660254158509133 501.34490648900458609 501.32171453409841888 501.30929861744306208 501.29970448370056602 501.28844026401469591 501.28071364810239174 501.2687949268297416 501.24775453011812942 501.22262036538211305 501.20000728772060938 -9999 
-9999 -9999 -9999 -9999 -9999 -9999 -9999 -9999 -9999 -9999 -9999 -9999 -9999 501.20012419146542015 501.21708574852698348 501.23630821205148322 501.26111906869084578 501.27215444313503667 501.27636677404655074 501.27400548186187734 501.28363424572603435 501.29609271655323255 501.30715869164862397 501.32858824100691209 501.3344329282242029 501.31479198993184809 501.29230074466914857 501.28041496701797541 501.26035250518179964 501.25430560210645581 501.24654936905108116 501.23384821722714833 501.21115022867434163 501.19919799493129631 501.16723078796144364 -9999 
-9999 -9999 -9999 -9999 -9999 -9999 -9999 -9999 -9999 -9999 -9999 -9999 -9999 501.1699062320897724 501.18953284503123768 501.21445605927453926 501.22742225178450326 501.24262636667583592 501.24665873127781879 501.2458976357464735 501.25528223335425082 501.26669976407424656 501.28012700928053391 501.2996780131126684 501.30295370577016456 501.28798843951835806 501.26356025718149567 501.24662844904878511 501.23042893431363609 501.24035367761268844 501.21569559609605449 501.20130347440812102 501.17478386717215244 501.15689001147200088 501.13647748748297772 -9999 
-9999 -9999 -9999 -9999 -9999 -9999 -9999 -9999 -9999 -9999 -9999 -9999 -9999 501.13988259942402692 501.1611250948678844 501.17848900601984496 501.19718311304802683 501.21107961095481187 501.21587862911854927 501.21642714609060931 501.22793153365819308 501.23804334862114729 501.25091964902173913 501.2695392926752902 501.27335999134942313 501.26042965879850044 501.23544074654614633 501.21417140790106259 501.19929564196928595 501.19455338446346104 501.18353882625700635 501.17233461884046619 501.15719081252046863 501.12772104794635197 501.10681032790398604 -9999 
-9999 -9999 -9999 -9999 -9999 -9999 -9999 -9999 -9999 -9999 -9999 -9999 -9999 501.11475725138075177 501.13834234794569511 501.15397879971567363 501.16908136283211661 501.18635925847615908 501.1865625919428453 501.18373028440458938 501.19387792145340654 501.20862843788540886 501.22229906222685258 501.24406590221650504 501.2477357075710529 501.23173304258938288 501.20449118107103459 501.18586970011551784 501.1708956275109017 501.16232776114651415 501.15286749069593952 501.14167886027354371 501.1273258827599193 501.10542750767694997 501.07829476908335664 -9999 
-9999 -9999 -9999 -9999 -9999 -9999 -9999 -9999 -9999 -9999 -9999 -9999 -9999 501.10305209098385149 501.10523280186953343 501.12002723026375861 501.14154215541884696 501.15590223588310437 501.15771626577611642 501.1558947670250177 501.16361066233662314 501.18273138600858374 501.19067610646300182 501.21146785184089367 501.21477208377541501 501.19957946942361104 501.17162644827720897 501.15922571982071076 501.1416057392105472 501.13723716606784819 501.12642763205565188 501.11049021119561075 501.08997981958930268 501.06587315627615453 501.04651808918742972 -9999 
-9999 -9999 -9999 -9999 -9999 -9999 -9999 -9999 -9999 -9999 -9999 -9999 -9999 501.060196412706091 501.08910727141767438 501.1005334430777225 501.11266431259110732 501.126679009092868 501.13039556355630566 501.13004284782090281 501.13501714598902481 501.14426897950653483 501.16057614099042894 501.19284236803378008 501.18642528582205387 501.17280578934287405 501.14173585590236826 501.12675544641882652 501.1100304946286883 501.1049496708730544 501.09455221241722711 501.0826433461767806 501.05355406565615795 501.03307812683857492 501.00982445915309427 -9999 
-9999 -9999 -9999 -9999 -9999 -9999 -9999 -9999 -9999 -9999 -9999 -9999 -9999 501.04146603849949315 501.06107836103575437 501.06567035053774362 501.08326952551612976 501.09514311819532395 501.10141643282776158 501.09831194748215921 501.10464425353904971 501.11817545178945466 501.1325199803006285 501.15027227964549184 501.15640013542457609 501.14295712018952145 501.11370425155115527 501.09358061250713945 501.07957273823075184 501.07158916005738547 501.06501131423084416 501.04995836470800441 501.03004270104298712 501.00269872356835776 500.98393387718169834 -9999 
-9999 -9999 -9999 -9999 -9999 -9999 -9999 -9999 -9999 -9999 -9999 -9999 -9999 500.99264132268541516 501.02616387537250375 501.03123917677453392 501.04954296894106847 501.0626406734355669 501.06958026842528398 501.06740577600561437 501.07570579934116495 501.08546037847145271 501.10214076599413602 501.11887191123304319 501.12662615570775415 501.11035644866916527 501.08149984128158394 501.06011893061827323 501.04814494449641415 501.04090206835502386 501.03307176439841442 501.01659623455753945 501.00342621271067856 500.97305119025884323 500.93898196908406817 -9999 
-9999 -9999 -9999 -9999 -9999 -9999 -9999 -9999 -9999 -9999 -9999 -9999 -9999 500.9781944016396551 500.99077014018297405 501.00348838069265867 501.02087292082433123 501.03227471148676386 501.03736920142955569 501.03676547865757129 501.04334708070194893 501.05352674839730298 501.06869864948339455 501.08688766845534701 501.09681659341504201 501.08253955916279665 501.05004461158955564 501.02963744977012084 501.01718223663152685 501.00983315181804301 501.00212225536984079 500.98694346235657804 500.96566853725562396 500.93845206517835322 500.91252137623547469 -9999 
-9999 -9999 -9999 -9999 -9999 -9999 -9999 -9999 -9999 -9999 -9999 -9999 -9999 500.94894655825623886 500.95984521269491552 500.97494371492734899 500.99186161122645444 501.00434653389760342 501.01106243246994154 501.01004800465227618 501.01381688754509014 501.02263343385936878 501.03797582689668388 501.0546045730953324 501.06695777017091586 501.05645947657558281 501.02146431630973211 501.00095072002488905 500.98746315726435796 500.98182825828041587 500.97130549774396968 500.95617806914003722 500.93336810382868407 500.91125401765179959 500.88674756145769607 -9999 
-9999 -9999 -9999 -9999 -9999 -9999 -9999 -9999 -9999 -9999 -9999 -9999 -9999 500.92004420550728128 500.95696208510997849 500.95071042136572714 500.96722362835225795 500.97893733104643843 500.98181687507832294 500.9796283780488011 500.98218679270541998 500.99302373503451236 501.00463292750976052 501.02335615237348065 501.03454249374232177 501.02424180297180101 500.99182898757317162 500.96918637662787432 500.95425449467501267 500.94857942409163343 500.93888136603317207 500.92742446388410826 500.90288093949385484 500.8838574944732045 500.85649062553494559 -9999 
-9999 -9999 -9999 -9999 -9999 -9999 -9999 -9999 -9999 -9999 -9999 -9999 -9999 500.89335599674546984 500.91126073224052107 500.92107086168687147 500.94186956649798503 500.95392351741605808 500.95623459241676301 500.95101989502802553 500.95532338605539735 500.96560766485254135 500.97824752984337238 500.99466807435220517 501.00546461156648093 500.99578698488437567 500.96104274382042831 500.94232854142234146 500.92764683860599462 500.91973700844857831 500.90989912168390674 500.8950247952888617 500.89759929298895713 500.85306130784698553 500.81820237319516309 -9999 
-9999 -9999 -9999 -9999 -9999 -9999 -9999 -9999 -9999 -9999 -9999 -9999 -9999 500.86400881330968105 500.89063349218685062 500.89052553701350234 500.91214247538351856 500.92776610349693556 500.9310467472624282 500.92330198130247254 500.92589614536831277 500.93794124004057267 500.95089382248715992 500.96680677567485418 500.97372259916079429 500.96872397135814481 500.93228908680436007 500.91532446340454499 500.89819969367226804 500.89202677921633722 500.87924761734143431 500.86701634919648995 500.85399833701706029 500.81366362979775886 500.7976226090567593 -9999 
-9999 -9999 -9999 -9999 -9999 -9999 -9999 -9999 -9999 -9999 -9999 -9999 -9999 500.84673564049762717 500.85800704862845123 500.86399908247904023 500.8838629790271284 500.89691722217770575 500.90232783331765631 500.89367904849223123 500.89376558184125088 500.90499034834249414 500.92073455662711012 500.93539944564309963 500.94424728441089201 500.93988430919591792 500.9042103469486733 500.88533457754414258 500.86712576614206682 500.85743816129405559 500.84992370544142659 500.83480577747087636 500.8147902652460175 500.79641338516177029 500.77506293179078511 -9999 
-9999 -9999 -9999 -9999 -9999 -9999 -9999 -9999 -9999 -9999 -9999 -9999 -9999 500.81894869908722967 500.83161253470541396 500.83798500724378755 500.8576542297830656 500.86673448355020355 500.87781931637448452 500.86566648729564122 500.87029562642510427 500.87529018050440754 500.88963745463331634 500.90283299257191629 500.91526687078714986 500.9097450370904312 500.8752385488390928 500.85084814681221133 500.83477892405079501 500.82610088123652758 500.81935649147038703 500.80471958859232018 500.79102657173280022 500.76151638988193326 500.73964338230166504 -9999 
-9999 -9999 -9999 -9999 -9999 -9999 -9999 -9999 -9999 -9999 -9999 -9999 -9999 500.79031597594956793 500.79267655691319305 500.8090611721336245 500.82678820565251954 500.84242649909890588 500.84920212463089229 500.83988087431220038 500.84174846593589336 500.84912801206246513 500.86060229417114442 500.87237164211302343 500.89119055639366707 500.88094369730026756 500.84513313204740825 500.82546363153932134 500.80880747529926111 500.80160225845838795 500.79189214278522968 500.77833092860043962 500.76049456606426702 500.74152358796141016 500.70697290954177561 -9999 
-9999 -9999 -9999 -9999 -9999 -9999 -9999 -9999 -9999 -9999 -9999 -9999 -9999 500.75181252553221611 500.80103900572902376 500.7821959432908443 500.79346940045132897 500.8120405363537202 500.82425252350736855 500.81643766345445101 500.81282726652199244 500.81799131669583858 500.82907577065884652 500.8459355008620264 500.86508455031821541 500.85835323228690186 500.81920846633488509 500.79752481470433167 500.78334645297763927 500.77001810331228171 500.76088683591854078 500.74555969554126023 500.74867527401460165 500.70597690841009353 500.67890520532563414 -9999 
-9999 -9999 -9999 -9999 -9999 -9999 -9999 -9999 -9999 -9999 -9999 -9999 -9999 500.72058719414604866 500.74490533422374483 500.75739146858597906 500.77110927453048816 500.78549053738453267 500.79842919654646494 500.78410491897284373 500.78325591205032197 500.78059090253623253 500.79711497200781878 500.81990059094431444 500.84279810109899245 500.82413974146669489 500.78824417797284241 500.76710013470966487 500.75612501599749748 500.74272179824208706 500.73203480410990096 500.71791035341129827 500.69876799100694598 500.67407954751803345 500.65143291973305395 -9999 
-9999 -9999 -9999 -9999 -9999 -9999 -9999 -9999 -9999 -9999 -9999 -9999 -9999 500.70351534102655933 500.72715748161442662 500.71681041271892809 500.73986644900435294 500.76623570154629306 500.75605518129623306 500.73291802498175684 500.72844172172773369 500.73649465394845492 500.75986296106998452 500.78926647433848984 500.80986865261542107 500.79587642108623413 500.75813031539217945 500.73651354624411169 500.72012563209869995 500.71122060029733802 500.70748456082151279 500.69147409368417811 500.68014291252507064 500.64813646127333868 500.62487218097811592 -9999 
-9999 -9999 -9999 -9999 -9999 -9999 -9999 -9999 -9999 -9999 -9999 -9999 500.64101821989095242 500.65647683735198825 500.68368736010160092 500.69572995583058628 500.70959817458901853 500.71860190095941334 500.70578678290286234 500.68522654507620473 500.68513860090786238 500.68838675405362437 500.68779611298845111 500.75499011100743019 500.77760477114765081 500.75827796396737313 500.72155048432080093 500.69987928214709427 500.68618721846837616 500.67939951366298601 500.67586769797190982 500.6639901655560152 500.64733780119701123 500.61664896244400325 500.59876953201109018 -9999 
-9999 -9999 -9999 -9999 -9999 -9999 -9999 -9999 -9999 -9999 -9999 -9999 500.61534216455345359 500.63127569441991227 500.66938780996457581 500.66138137609658543 500.67312806555622728 500.68144369852632281 500.67889222935127691 500.65745367439524216 500.64989531692418723 500.65515934924758312 500.69448758755174822 500.72807627927534213 500.74793453780938535 500.73197824016267532 500.6875250560762538 500.6735717104375567 500.6581159069540945 500.65025251414516561 500.64582935094193772 500.63391498382901545 500.61420919836120902 500.59327797516482406 500.56560234072850335 -9999 
-9999 -9999 -9999 -9999 -9999 -9999 -9999 -9999 -9999 -9999 -9999 -9999 500.58527532596718856 500.59145168424282701 500.62517908147418666 500.6257694289849951 500.64919155820496144 500.64572034116156374 500.6534962322583624 500.61850823588275716 500.62257610226492943 500.64876179815439627 500.67654463870485415 500.70115447970488276 500.71608194067255226 500.70298481199426988 500.65705675387584961 500.64274265578245604 500.62840100852821479 500.62621842667249439 500.61716466079246857 500.60346410526511818 500.59336617415129922 500.56379439011186605 500.53626973611727635 -9999 
-9999 -9999 -9999 -9999 -9999 -9999 -9999 -9999 -9999 -9999 -9999 -9999 500.55947508016856773 500.58535796456720846 500.61224556684783238 500.60401692777179505 500.62530122865075555 500.62050060234264492 500.59869143468142738 500.60150342926800704 500.61620955720934489 500.63479304632085132 500.6574920521075569 500.67283643507903435 500.68419890974047348 500.67728956686499941 500.63265115678257189 500.61826679648658001 500.60753073712828609 500.5983226986494401 500.58895329267045327 500.573591712626353 500.56771396813610409 500.52690252661585646 500.50511903414889048 -9999 
-9999 -9999 -9999 -9999 -9999 -9999 -9999 -9999 -9999 -9999 -9999 -9999 500.53126318662054928 500.55333972251474961 500.55904394680976566 500.57460662197797774 500.59418736746914647 500.56980464814625975 500.58024738295080169 500.59389336046911012 500.60384971685988376 500.61935793769993097 500.62990155031468475 500.63885179463619579 500.64973744619948093 500.64652380122936393 500.60830229152429638 500.59154860599352332 500.57673834941016366 500.56841025877633911 500.55669818284491157 500.54273763502976635 500.52870125842241578 500.49944293192658051 500.47485844739372851 500.43949882503926574 
-9999 -9999 -9999 -9999 -9999 -9999 -9999 -9999 -9999 -9999 -9999 -9999 500.50255822710641951 500.52339101127910226 500.53631134196672292 500.54523641302716896 500.50862978795186109 500.56596185502428398 500.59806748750554561 500.57560729453632575 500.57718376620493927 500.58703381400067656 500.59778620316086517 500.606033326337581 500.61876999672392685 500.6235892670119938 500.57917231079215981 500.56241743336329364 500.54960847253892098 500.53933294849258573 500.52424153537839402 500.50851160352306124 500.49634944202369979 500.46819529538987581 500.44573035962474705 500.41585869769113515 
-9999 -9999 -9999 -9999 -9999 -9999 -9999 -9999 -9999 -9999 -9999 -9999 500.47559457343714939 500.4943883737176975 500.49962744705629802 500.47205594330921485 500.53036096643700148 500.5459010825321684 500.55599627667169216 500.54662654652156561 500.55279178585544742 500.55805033708674046 500.5679271532525263 500.57801587320341241 500.59231257061549059 500.58439279967558377 500.55154731693369285 500.53342886182957727 500.51937153657939916 500.51074135894606343 500.49577862203875611 500.48109441849197765 500.47042058914144036 500.43781530650448985 500.41500845603763992 500.3836675203100981 
-9999 -9999 -9999 -9999 -9999 -9999 -9999 -9999 -9999 -9999 -9999 -9999 500.49973380372972542 500.46333643640952005 500.43716283695425773 500.48936167950495246 500.50379205720588516 500.51666183379506947 500.51751853280921978 500.5140072023882567 500.51796630081611283 500.52379466144691378 500.53463700159585414 500.54760060191529192 500.55933326795997118 500.55277586186451799 500.51926700197452647 500.50041210582679696 500.48635507201157679 500.47951590152752033 500.46620876588372084 500.45047407104101467 500.43692037129233086 500.41039971587156288 500.38535139165952614 500.34814367053559181 
-9999 -9999 -9999 -9999 -9999 -9999 -9999 -9999 -9999 -9999 -9999 -9999 500.45101976072118077 500.40567510664840256 500.44132998870190931 500.4570155319761966 500.47624372029582673 500.48193705378787399 500.48999194166123061 500.48294009379770841 500.49134416940040637 500.49491270532450926 500.50577715020398273 500.52196866178832124 500.5306052650785773 500.52379139188371937 500.49060081664981681 500.47050955862818 500.45657946692494988 500.44662995409009909 500.43478230977200383 500.42003091855070807 500.4037583116420933 500.37556386146945897 500.35705150548528763 500.31966863167485826 
-9999 -9999 -9999 -9999 -9999 -9999 -9999 -9999 -9999 -9999 -9999 -9999 500.28626073522730167 500.4197627134672075 500.42311097945116671 500.43751385588097946 500.44421972336778026 500.45252147799175191 500.46395937032843904 500.45504869937940384 500.46238567321836399 500.46866617168774383 500.47914502098382172 500.48771284763785161 500.50192101513516718 500.49111776690824627 500.46106731146369384 500.44330247707978288 500.42894811396712385 500.41802717619754048 500.40559161144557265 500.3931824743647212 500.3811591193312438 500.35018231265814848 500.32892364911248251 500.30864814808171559 
-9999 -9999 -9999 -9999 -9999 -9999 -9999 -9999 -9999 -9999 -9999 -9999 500.53090662681097456 500.37878866912473086 500.40489996355410085 500.39805176442200718 500.41340312410460456 500.42468142798668396 500.43264588480889188 500.41965694239883078 500.42889539634012408 500.43743338855875891 500.44679901431129565 500.45496864303481743 500.46719831116479327 500.45931422265397259 500.43095101151664039 500.413222942662685 500.39748818049838519 500.39280652331945021 500.37880736567052509 500.3645841957101652 500.3505875268554064 500.31903555804979078 500.29324575053033186 500.26550945193520192 
-9999 -9999 -9999 -9999 -9999 -9999 -9999 -9999 -9999 -9999 -9999 -9999 500.34175691045288659 500.35405279324817229 500.39213733653201643 500.37837869547695391 500.38694035438288665 500.39472953894869534 500.40265296635999448 500.3877816307865487 500.39204256657359338 500.40268319563017485 500.41392145642811329 500.42288690005466378 500.43418170872439532 500.4270861484183115 500.40038778370745831 500.38418747386566565 500.37023604415867339 500.35948840208300226 500.34800775817620888 500.33398370839415747 500.31918425755179669 500.2876982388092415 500.26759250276688817 500.22706074492867856 
-9999 -9999 -9999 -9999 -9999 -9999 -9999 -9999 -9999 -9999 -9999 -9999 500.32744805179459036 500.3273154573378747 500.33061601935423823 500.35857495820425811 500.35221256037561943 500.36226273678948928 500.36991220565403182 500.35588472220092626 500.35602016728051922 500.36689379652955267 500.37857370644798038 500.3918331772818533 500.40495822141360804 500.40240057665585027 500.37369777232788692 500.35516883983848402 500.34203904831764476 500.33577634891219077 500.32002622055142638 500.30601977178577044 500.29282756604357019 500.26234955369795898 500.24658622848505729 500.20686219066692502 
-9999 -9999 -9999 -9999 -9999 -9999 -9999 -9999 -9999 -9999 -9999 -9999 500.27520965184515944 500.28063324190043204 500.29954600134510656 500.31009673742352106 500.32323637879773059 500.33180340360490845 500.33715016369438899 500.32686273174994085 500.32397026401349649 500.33383035066128741 500.35004717915018091 500.36205775371604432 500.37780418118836678 500.37601348197080142 500.346283941331194 500.32370366963459674 500.31160122038340887 500.30256713104529354 500.29033303769125496 500.27872904427113099 500.26271684122696115 500.23042604889326412 500.21277443450293276 500.17616481643665338 
-9999 -9999 -9999 -9999 -9999 -9999 -9999 -9999 -9999 -9999 -9999 -9999 500.24677766556402503 500.25119993508371863 500.26173848568947733 500.2688904649238566 500.28691885862946265 500.30164966323849285 500.30700348885392259 500.29528870002098984 500.29372335294891627 500.30586983274480417 500.32405656399583904 500.3340774352243443 500.35165938089534166 500.3453079104436938 500.3177409239204394 500.29506479400345142 500.28214142684777244 500.27421012989395877 500.26249982708742436 500.25004444476303433 500.22987985085023865 500.1948712526948384 500.18377624123849046 500.15305571387744976 
-9999 -9999 -9999 -9999 -9999 -9999 -9999 -9999 -9999 -9999 -9999 -9999 500.22369574910015899 500.21203486018657713 500.22858715208980129 500.24003116402656133 500.2547306332738799 500.27090092562383461 500.27919352615765547 500.26985372901566507 500.2706289881638213 500.27909585078202781 500.29470784639340764 500.30443910771919036 500.31845390079467961 500.31519804698359621 500.28799548419465282 500.26895009171175843 -9999 -9999 -9999 -9999 -9999 -9999 -9999 -9999 
